!!!!SEGMENT: pl-cz--iii-349--009_koperski-maksymilian--msza-b-agnus-dei.krn
!!!cenid: 18xx:895
!!!COM: Koperski, Maksymilian
!!!COM-rismID: pe30060120
!!!CDT: 1812-1886
!!!CNT:
!!!OPR: Msza B
!!!OTL: Agnus Dei
!!!OMV: 009
!!!PDT: 1834
!!!AGN: Sacred; Mass
!!!SMS-siglum: PL-CZ
!!!SMS-shelfmark: III-349
!!!SMS-shelfwork: 001-009 M
!!!SMS-variant:
!!!SMS-altvar:
!!!NIFC-rismSourceID: 300000599
!!!NIFC-rismChildID: 300000599
!!!NIFC-islandoraID: pl-cz:37819
!!!URL-pdf-islandora: https://repozytorium.nifc.pl/islandora/object/pl-cz%3A37819/datastream/PDF/view
!!!URL-scan: https://polish.musicsources.pl/pl/lokalizacje/galeria/rekopisy/6910/1 @EN{Scan on Polish Music Sources Website} @PL{Skany w portalu Dziedzictwo Muzyki Polskiej w otwartym dostępie}
!!!IIIF:
!!!ONB-nifc: UWAGA: części Mszy: Kyrie, Gloria, Credo, Et incarnatus, Et resurrexit, Sanctus, Pleni, Benedictus, Agnus Dei
!!!AIN: 1 alto 1 bass 2 clars 2 clrno 1 fagot 1 flt 1 organ 1 soprn 1 tenor 1 timpa 1 viola 2 violn
!!!key: f
**kern	**fba	**dynam	**kern	**dynam	**kern	**dynam	**kern	**dynam	**kern	**text	**dynam	**kern	**text	**dynam	**kern	**text	**dynam	**kern	**text	**dynam	**kern	**dynam	**kern	**dynam	**kern	**dynam	**kern	**dynam	**kern	**dynam	**kern	**dynam	**kern	**dynam
*part15	*part15	*part15	*part14	*part14	*part13	*part13	*part12	*part12	*part11	*part11	*part11	*part10	*part10	*part10	*part9	*part9	*part9	*part8	*part8	*part8	*part7	*part7	*part6	*part6	*part5	*part5	*part4	*part4	*part3	*part3	*part2	*part2	*part1	*part1
*staff15	*	*	*staff14	*	*staff13	*	*staff12	*	*staff11	*staff11	*	*staff10	*staff10	*	*staff9	*staff9	*	*staff8	*staff8	*	*staff7	*	*staff6	*	*staff5	*	*staff4	*	*staff3	*	*staff2	*	*staff1	*
*I"Organo.	*	*	*I"Alto Viola	*	*I"Violino 2do	*	*I"Violino 1mo.	*	*I"Basſo.	*	*	*I"Tenore.	*	*	*I"Alto.	*	*	*I"Canto	*	*	*I"Tympano in B C.G.	*	*I"Clarino 2do in B_	*	*I"Clarino 1.mo in B	*	*I"Fagotto. 1mo.	*	*I"Clarinetto 2do in B.	*	*I"Clarinetto 1mo in B.	*	*I"Flauto:	*
*I'org	*	*	*I'a-vla	*	*I'vl II	*	*I'vl I	*	*I'B	*	*	*I'T	*	*	*I'A	*	*	*I'S	*	*	*I'timp	*	*I'clno II	*	*I'clno I	*	*I'fag	*	*I'cl II	*	*I'cl I	*	*I'fl	*
*ICklav	*	*	*ICstr	*	*ICstr	*	*ICstr	*	*ICvox	*	*	*ICvox	*	*	*ICvox	*	*	*ICvox	*	*	*ICidio	*	*ICbras	*	*ICbras	*	*ICww	*	*ICww	*	*ICww	*	*ICww	*
*Iorgan	*	*	*Iviola	*	*Ivioln	*	*Ivioln	*	*Ibass	*	*	*Itenor	*	*	*Ialto	*	*	*Isoprn	*	*	*Itimpa	*	*Iclrno	*	*Iclrno	*	*Ifagot	*	*Iclars	*	*Iclars	*	*Iflt	*
*clefF4	*	*	*clefC3	*	*clefG2	*	*clefG2	*	*clefF4	*	*	*clefC4	*	*	*clefC3	*	*	*clefC1	*	*	*clefF4	*	*clefG2	*	*clefG2	*	*clefF4	*	*clefG2	*	*clefG2	*	*clefG2	*
*	*	*	*	*	*	*	*	*	*	*	*	*	*	*	*	*	*	*	*	*	*ITrd1c2	*	*ITrd1c2	*	*ITrd1c2	*	*	*	*ITrd1c2	*	*ITrd1c2	*	*	*
*k[b-e-a-d-]	*	*	*k[b-e-a-d-]	*	*k[b-e-a-d-]	*	*k[b-e-a-d-]	*	*k[b-e-a-d-]	*	*	*k[b-e-a-d-]	*	*	*k[b-e-a-d-]	*	*	*k[b-e-a-d-]	*	*	*k[b-e-]	*	*k[b-e-]	*	*k[b-e-]	*	*k[b-e-a-d-]	*	*k[b-e-a-d-]	*	*k[b-e-a-d-]	*	*k[b-e-a-d-]	*
*f:	*	*	*f:	*	*f:	*	*f:	*	*f:	*	*	*f:	*	*	*f:	*	*	*f:	*	*	*	*	*	*	*	*	*f:	*	*f:	*	*f:	*	*f:	*
*M3/4	*	*	*M3/4	*	*M3/4	*	*M3/4	*	*M3/4	*	*	*M3/4	*	*	*M3/4	*	*	*M3/4	*	*	*M3/4	*	*M3/4	*	*M3/4	*	*M3/4	*	*M3/4	*	*M3/4	*	*M3/4	*
=1	=1	=1	=1	=1	=1	=1	=1	=1	=1	=1	=1	=1	=1	=1	=1	=1	=1	=1	=1	=1	=1	=1	=1	=1	=1	=1	=1	=1	=1	=1	=1	=1	=1	=1
!!LO:TX:t=P:problem: all\right	!	!	!	!	!	!	!	!	!	!	!	!	!	!	!	!	!	!	!	!	!	!	!	!	!	!	!	!	!	!	!	!	!
!	!	!	!	!	!	!	!	!	! 	!	!	!	!	!	!	!	!	!	!	!	!LO:TX:a:B:t=Adagio	!	!	!	!	!	!	!	!	!	!	!	!	!
! 	!	!	!LO:SIC:s=4c	!	!LO:TX:a:t=Trzeba pamietać na dole iest Wide	!	!	!	!LO:TX:a:i:t=Sotto Voce Solo	!	!	!LO:TX:a:B:t=andagto	!	!	!LO:TX:a:i:t=adagio	!	!	!LO:TX:a:B:t=Adagio	!	!	!LO:TX:b:t=Agnus	!	!LO:TX:a:B:t=adagio	!	!	!	! 	!	!LO:TX:a:t=9	!	!LO:TX:a:t=9	!	!LO:TX:a:t=9	!
!LO:TX:a:B:t=Adagio	!	!	!LO:TX:a:B:t=adagio	!	!LO:TX:a:B:t=Adagio	!	!LO:TX:a:B:t=Adagio	!	!LO:TX:a:B:t=adagio	!	!	!LO:TX:a:t=8	!	!	!LO:TX:a:t=8	!	!	!LO:TX:b:t=Agnus	!	!	!LO:TX:a:t=44	!	!LO:TX:a:t=44	!	!LO:TX:a:t=44	!	!LO:TX:b:t=Agnus	!	!LO:TX:b:t=Agnus	!	!LO:TX:b:t=Agnus	!	!LO:TX:b:t=Agnus	!
!LO:TX:b:t=Agnus	!	!	!LO:TX:b:t=Agnus	!	!LO:TX:b:t=Agnus	!	!LO:TX:b:t=Agnus	!	!LO:TX:b:t=Agnus	!	!	!LO:TX:a:t=A	!	!	!LO:TX:b:t=Agnus	!	!	!LO:TX:t=P:problem=bemole b- a- ee- dd-	!	!	!LO:TX:t=P:problem=partia in B	!	!LO:TX:b:t=Agnus	!	!LO:TX:b:t=Agnus	!	!LO:TX:a:B:t=adagio	!	!LO:TX:a:B:t=adagio	!	!LO:TX:a:B:t=adagio	!	!LO:TX:a:B:t=adagio	!
!	!	!	!	!	!	!	!	!	!	!	!	!	!	!LO:DY:b	!	!	!	!	!	!	!	!	!	!	!	!	!	!	!	!	!	!	!	!
!	!	!	!	!	!	!	!	!LO:DY:b	!	!	!	!	!	!	!	!	!	!	!	!	!	!	!	!	!	!	!	!	!	!	!	!	!	!
!	!	!	!	!	!	!LO:DY:b	!	!	!	!	!	!	!	!	!	!	!	!	!	!	!	!	!	!	!	!	!	!	!	!	!	!	!	!
!	!	!LO:DY:b	!	!	!	!	!	!	!	!	!	!	!	!	!	!	!	!	!	!	!	!	!	!	!	!	!	!LO:DY:t=for	!	!	!	!	!	!
4F\	5_ -3_	p	4B-/	.	8r	p	8r	p	4F\	A-	.	2.r	.	f	2.r	.	.	2.r	.	.	2.r	.	2.r	.	2.r	.	4F\	f	2.r	.	2.r	.	2.r	.
.	.	.	.	.	8A-X/ 8f	.	8c/	.	.	.	.	.	.	.	.	.	.	.	.	.	.	.	.	.	.	.	.	.	.	.	.	.	.	.
*	*	*	*	*	*tremolo	*	*	*	*	*	*	*	*	*	*	*	*	*	*	*	*	*	*	*	*	*	*	*	*	*	*	*	*	*
*	*	*	*	*	*	*	*tremolo	*	*	*	*	*	*	*	*	*	*	*	*	*	*	*	*	*	*	*	*	*	*	*	*	*	*	*
!	!	!	!	!	!	!	!LO:TX:t=P:problem=4 kropki art.	!	! 	!	!	!	!	!	!	!	!	!	!	!	!	!	!	!	!	!	!LO:TX:a:i:t=Dolce	!	!	!	!	!	!	!
4r	.	.	4r	.	8A-/ 8fL	.	8c'/L	.	16.F\LL	.	.	.	.	.	.	.	.	.	.	.	.	.	.	.	.	.	16F\LL	.	.	.	.	.	.	.
.	.	.	.	.	.	.	.	.	.	.	.	.	.	.	.	.	.	.	.	.	.	.	.	.	.	.	(16C'\	.	.	.	.	.	.	.
.	.	.	.	.	.	.	.	.	32C\K	.	.	.	.	.	.	.	.	.	.	.	.	.	.	.	.	.	.	.	.	.	.	.	.	.
!	!	!	!	!	!	!	!	!	!	!	!	!	!	!	!	!	!	!	!	!	!	!	!	!	!	!	!LO:SIC:s=16Dn	!	!	!	!	!	!	!
.	.	.	.	.	8A-/ 8f	.	8c'/	.	16.Dn\	.	.	.	.	.	.	.	.	.	.	.	.	.	.	.	.	.	16D-'\	.	.	.	.	.	.	.
.	.	.	.	.	.	.	.	.	.	.	.	.	.	.	.	.	.	.	.	.	.	.	.	.	.	.	16En'\JJ	.	.	.	.	.	.	.
.	.	.	.	.	.	.	.	.	32En\JJk	.	.	.	.	.	.	.	.	.	.	.	.	.	.	.	.	.	.	.	.	.	.	.	.	.
!	!	!	!LO:SIC:s=4c	!	!	!	!	!	!	!	!	!	!	!	!	!	!	!	!	!	!	!	!	!	!	!	!	!	!	!	!	!	!	!
4F\	.	.	4B-/	.	8A-/ 8f	.	8c'/	.	16.F\LL	.	.	.	.	.	.	.	.	.	.	.	.	.	.	.	.	.	16F'\LL	.	.	.	.	.	.	.
.	.	.	.	.	.	.	.	.	.	.	.	.	.	.	.	.	.	.	.	.	.	.	.	.	.	.	16G'\	.	.	.	.	.	.	.
.	.	.	.	.	.	.	.	.	32G\K	.	.	.	.	.	.	.	.	.	.	.	.	.	.	.	.	.	.	.	.	.	.	.	.	.
.	.	.	.	.	8A-/ 8fJ	.	8c'/J	.	16.A-\	.	.	.	.	.	.	.	.	.	.	.	.	.	.	.	.	.	16A-X'\)	.	.	.	.	.	.	.
.	.	.	.	.	.	.	.	.	.	.	.	.	.	.	.	.	.	.	.	.	.	.	.	.	.	.	16F'\JJ	.	.	.	.	.	.	.
.	.	.	.	.	.	.	.	.	32F\JJk	-gnus	.	.	.	.	.	.	.	.	.	.	.	.	.	.	.	.	.	.	.	.	.	.	.	.
=2	=2	=2	=2||:	=2	=2	=2	=2	=2	=2	=2	=2	=2	=2	=2	=2	=2	=2	=2	=2	=2	=2	=2	=2	=2	=2	=2	=2	=2	=2	=2	=2	=2	=2	=2
4C/	n3	.	4en\	.	8r	.	8r	.	(8.En\L	De-	.	2.r	.	.	2.r	.	.	2.r	.	.	2.r	.	2.r	.	2.r	.	8.En\L	.	2.r	.	2.r	.	2.r	.
.	.	.	.	.	8c/	.	8B-/ 8en	.	.	.	.	.	.	.	.	.	.	.	.	.	.	.	.	.	.	.	.	.	.	.	.	.	.	.
.	.	.	.	.	.	.	.	.	16G\Jk)	.	.	.	.	.	.	.	.	.	.	.	.	.	.	.	.	.	16G\Jk	.	.	.	.	.	.	.
!	!	!	!	!	!	!	!LO:TX:t=P:problem=4 kropki art.	!	!	!	!	!	!	!	!	!	!	!	!	!	!	!	!	!	!	!	!	!	!	!	!	!	!	!
4r	.	.	4r	.	8c/L	.	8B-'/ 8eL	.	4C/	-i	.	.	.	.	.	.	.	.	.	.	.	.	.	.	.	.	4C'/	.	.	.	.	.	.	.
.	.	.	.	.	8c/	.	8B-'/ 8e	.	.	.	.	.	.	.	.	.	.	.	.	.	.	.	.	.	.	.	.	.	.	.	.	.	.	.
4r	.	.	4e\	.	8c/	.	8B-'/ 8e	.	8.r	.	.	.	.	.	.	.	.	.	.	.	.	.	.	.	.	.	8.r	.	.	.	.	.	.	.
.	.	.	.	.	8c/J	.	8B-'/ 8eJ	.	.	.	.	.	.	.	.	.	.	.	.	.	.	.	.	.	.	.	.	.	.	.	.	.	.	.
.	.	.	.	.	.	.	.	.	16c\	qui	.	.	.	.	.	.	.	.	.	.	.	.	.	.	.	.	[16E\	.	.	.	.	.	.	.
=3	=3	=3	=3:||	=3	=3	=3	=3	=3	=3	=3	=3	=3	=3	=3	=3	=3	=3	=3	=3	=3	=3	=3	=3	=3	=3	=3	=3	=3	=3	=3	=3	=3	=3	=3
4C/	n3	.	4en\yy	.	8r	.	8r	.	8c\	tol-	.	2.r	.	.	2.r	.	.	2.r	.	.	2.r	.	2.r	.	2.r	.	8En\]	.	2.r	.	2.r	.	2.r	.
!	!	!	!	!	!	!	!LO:SIC:s=8en	!	!	!	!	!	!	!	!	!	!	!	!	!	!	!	!	!	!	!	!	!	!	!	!	!	!	!
.	.	.	.	.	8c/	.	8B-/ 8e-X	.	4d-X^\	.	.	.	.	.	.	.	.	.	.	.	.	.	.	.	.	.	4d-X^\	.	.	.	.	.	.	.
!	!	!	!	!	!	!	!LO:SIC:s=2en	!	!	!	!	!	!	!	!	!	!	!	!	!	!	!	!	!	!	!	!	!	!	!	!	!	!	!
4r	.	.	4ryy	.	8c/L	.	8B-/ 8e-L	.	.	.	.	.	.	.	.	.	.	.	.	.	.	.	.	.	.	.	.	.	.	.	.	.	.	.
.	.	.	.	.	8c/	.	8B-/ 8e-	.	16c\LL	.	.	.	.	.	.	.	.	.	.	.	.	.	.	.	.	.	16c\LL	.	.	.	.	.	.	.
.	.	.	.	.	.	.	.	.	16B-\JJ	.	.	.	.	.	.	.	.	.	.	.	.	.	.	.	.	.	16B-\JJ	.	.	.	.	.	.	.
4C/	.	.	4e\yy	.	8c/	.	8B-/ 8e-	.	(16A-\LL	-lis	.	.	.	.	.	.	.	.	.	.	.	.	.	.	.	.	16A-\LL	.	.	.	.	.	.	.
.	.	.	.	.	.	.	.	.	16G\)	.	.	.	.	.	.	.	.	.	.	.	.	.	.	.	.	.	16G\	.	.	.	.	.	.	.
.	.	.	.	.	8c/J	.	8B-/ 8e-J	.	(16F\	pec-	.	.	.	.	.	.	.	.	.	.	.	.	.	.	.	.	16F\	.	.	.	.	.	.	.
.	.	.	.	.	.	.	.	.	16En\JJ)	.	.	.	.	.	.	.	.	.	.	.	.	.	.	.	.	.	16E\JJ	.	.	.	.	.	.	.
!	!	!	!	!	!	!	!	!	!LO:LB:g=original	!	!	!	!	!	!	!	!	!	!	!	!	!	!	!	!	!	!	!	!	!	!	!	!	!
*	*	*	*	*	*	*	*Xtremolo	*	*	*	*	*	*	*	*	*	*	*	*	*	*	*	*	*	*	*	*	*	*	*	*	*	*	*
=4	=4	=4	=4	=4	=4	=4	=4	=4	=4	=4	=4	=4	=4	=4	=4	=4	=4	=4	=4	=4	=4	=4	=4	=4	=4	=4	=4	=4	=4	=4	=4	=4	=4	=4
!	!	!	!LO:SIC:s=4c	!	!	!	!	!	!	!	!	!	!	!	!	!	!	!	!	!	!	!	!	!	!	!	!	!	!	!	!	!	!	!
4F\	5 -3	.	4B-/	.	8r	.	8r	.	8.G\L	-ca-	.	2.r	.	.	2.r	.	.	2.r	.	.	2.r	.	2.r	.	2.r	.	4G\	.	2.r	.	2.r	.	2.r	.
.	.	.	.	.	8c/	.	8A-/ 8f	.	.	.	.	.	.	.	.	.	.	.	.	.	.	.	.	.	.	.	.	.	.	.	.	.	.	.
.	.	.	.	.	.	.	.	.	16F\Jk	.	.	.	.	.	.	.	.	.	.	.	.	.	.	.	.	.	.	.	.	.	.	.	.	.
4r	.	.	4r	.	8c/L	.	8A-/L 8f	.	4F\	-ta	.	.	.	.	.	.	.	.	.	.	.	.	.	.	.	.	16F\LL	.	.	.	.	.	.	.
.	.	.	.	.	.	.	.	.	.	.	.	.	.	.	.	.	.	.	.	.	.	.	.	.	.	.	(16C'\	.	.	.	.	.	.	.
!	!	!	!	!	!	!	!	!	!	!	!	!	!	!	!	!	!	!	!	!	!	!	!	!	!	!	!LO:SIC:s=16Dn	!	!	!	!	!	!	!
.	.	.	.	.	8c/	.	8A-/J 8f	.	.	.	.	.	.	.	.	.	.	.	.	.	.	.	.	.	.	.	16D-'\	.	.	.	.	.	.	.
.	.	.	.	.	.	.	.	.	.	.	.	.	.	.	.	.	.	.	.	.	.	.	.	.	.	.	16En'\JJ	.	.	.	.	.	.	.
!	!	!	!LO:SIC:s=4c	!	!	!	!	!	!	!	!	!	!	!	!	!	!	!	!	!	!	!	!	!	!	!	!	!	!	!	!	!	!	!
!	!	!	!LO:TX:t=P:problem=dodana pauza 4	!	!	!	!	!	!	!	!	!	!	!	!	!	!	!	!	!	!	!	!	!	!	!	!	!	!	!	!	!	!	!
4r	.	.	4B-/	.	8c/	.	4A-/ 4f	.	8.r	.	.	.	.	.	.	.	.	.	.	.	.	.	.	.	.	.	16F'\LL	.	.	.	.	.	.	.
.	.	.	.	.	.	.	.	.	.	.	.	.	.	.	.	.	.	.	.	.	.	.	.	.	.	.	16G'\	.	.	.	.	.	.	.
.	.	.	.	.	8c/J	.	.	.	.	.	.	.	.	.	.	.	.	.	.	.	.	.	.	.	.	.	16A-'\	.	.	.	.	.	.	.
.	.	.	.	.	.	.	.	.	16c\	pec-	.	.	.	.	.	.	.	.	.	.	.	.	.	.	.	.	16B-'\JJ)	.	.	.	.	.	.	.
!	!	!	!	!	!	!	!	!	!	!	!	!	!	!	!	!	!	!	!	!	!	!	!	!	!	!	!LO:LB:g=original	!	!	!	!	!	!	!
=5	=5	=5	=5	=5	=5	=5	=5	=5	=5	=5	=5	=5	=5	=5	=5	=5	=5	=5	=5	=5	=5	=5	=5	=5	=5	=5	=5	=5	=5	=5	=5	=5	=5	=5
!	!	!	!LO:SIC:s=4c	!	!	!	!LO:TX:a:i:t=Do	!	!	!	!	!	!	!	!	!	!	!	!	!	!	!	!	!	!	!	!	!	!	!	!	!	!	!
4F\	5 -3	.	4B-/	.	4c/	.	4A-/ 4f	.	8.c\L	-ca-	.	2.r	.	.	2.r	.	.	2.r	.	.	2.r	.	2.r	.	2.r	.	4c\	.	2.r	.	2.r	.	2.r	.
.	.	.	.	.	.	.	.	.	16A-\Jk	.	.	.	.	.	.	.	.	.	.	.	.	.	.	.	.	.	.	.	.	.	.	.	.	.
4r	.	.	4r	.	8r	.	16r	.	4F\	-ta	.	.	.	.	.	.	.	.	.	.	.	.	.	.	.	.	(16En\LL	.	.	.	.	.	.	.
.	.	.	.	.	.	.	16aa-X\LL	.	.	.	.	.	.	.	.	.	.	.	.	.	.	.	.	.	.	.	16G\	.	.	.	.	.	.	.
!	!	!	!	!	!	!	!	!LO:DY:a	!	!	!	!	!	!	!	!	!	!	!	!	!	!	!	!	!	!	!	!	!	!	!	!	!	!
.	.	.	.	.	8c/ 8f	.	16gg\	>	.	.	.	.	.	.	.	.	.	.	.	.	.	.	.	.	.	.	16B-\	.	.	.	.	.	.	.
.	.	.	.	.	.	.	16ff\JJ	.	.	.	.	.	.	.	.	.	.	.	.	.	.	.	.	.	.	.	16d-\JJ	.	.	.	.	.	.	.
4r	.	.	4r	.	4c#X/ 4en	.	4eent\	]	8.r	.	.	.	.	.	.	.	.	.	.	.	.	.	.	.	.	.	16.c\LL	.	.	.	.	.	.	.
*	*	*	*	*	*	*	*	*	*	*ij	*	*	*	*	*	*	*	*	*	*	*	*	*	*	*	*	*	*	*	*	*	*	*	*
.	.	.	.	.	.	.	.	.	.	.	.	.	.	.	.	.	.	.	.	.	.	.	.	.	.	.	32B-\K	.	.	.	.	.	.	.
.	.	.	.	.	.	.	.	.	.	.	.	.	.	.	.	.	.	.	.	.	.	.	.	.	.	.	16.A-\)	.	.	.	.	.	.	.
.	.	.	.	.	.	.	.	.	16c\	pec-	.	.	.	.	.	.	.	.	.	.	.	.	.	.	.	.	.	.	.	.	.	.	.	.
.	.	.	.	.	.	.	.	.	.	.	.	.	.	.	.	.	.	.	.	.	.	.	.	.	.	.	32G\JJk	.	.	.	.	.	.	.
=6	=6	=6	=6	=6	=6	=6	=6	=6	=6	=6	=6	=6	=6	=6	=6	=6	=6	=6	=6	=6	=6	=6	=6	=6	=6	=6	=6	=6	=6	=6	=6	=6	=6	=6
!	!	!	!LO:SIC:s=4c	!	!	!	!	!	!	!	!	!	!	!	!	!	!	!	!	!	!	!	!	!	!	!	!	!	!	!	!	!	!	!
4F\	5 -3	.	4B-/	.	4cn/	.	4ff\	.	8.c\L	-ca-	.	2.r	.	.	2.r	.	.	2.r	.	.	2.r	.	2.r	.	2.r	.	4F\	.	2.r	.	2.r	.	2.r	.
.	.	.	.	.	.	.	.	.	16A-\Jk	.	.	.	.	.	.	.	.	.	.	.	.	.	.	.	.	.	.	.	.	.	.	.	.	.
4r	.	.	4r	.	8r	.	16r	.	4F\	-ta	.	.	.	.	.	.	.	.	.	.	.	.	.	.	.	.	(16En\LL	.	.	.	.	.	.	.
.	.	.	.	.	.	.	16aa-X\LL	.	.	.	.	.	.	.	.	.	.	.	.	.	.	.	.	.	.	.	16G\	.	.	.	.	.	.	.
*	*	*	*	*	*	*	*	*	*	*Xij	*	*	*	*	*	*	*	*	*	*	*	*	*	*	*	*	*	*	*	*	*	*	*	*
.	.	.	.	.	8c/ 8f	.	16gg\	.	.	.	.	.	.	.	.	.	.	.	.	.	.	.	.	.	.	.	16B-\	.	.	.	.	.	.	.
.	.	.	.	.	.	.	16ff\JJ	.	.	.	.	.	.	.	.	.	.	.	.	.	.	.	.	.	.	.	16d-\JJ	.	.	.	.	.	.	.
4r	.	.	4r	.	4c#X/ 4en	.	4eent\	.	8.r	.	.	.	.	.	.	.	.	.	.	.	.	.	.	.	.	.	16.c\LL	.	.	.	.	.	.	.
.	.	.	.	.	.	.	.	.	.	.	.	.	.	.	.	.	.	.	.	.	.	.	.	.	.	.	32B-\K	.	.	.	.	.	.	.
.	.	.	.	.	.	.	.	.	.	.	.	.	.	.	.	.	.	.	.	.	.	.	.	.	.	.	16.A-\)	.	.	.	.	.	.	.
.	.	.	.	.	.	.	.	.	16c\	qui	.	.	.	.	.	.	.	.	.	.	.	.	.	.	.	.	.	.	.	.	.	.	.	.
.	.	.	.	.	.	.	.	.	.	.	.	.	.	.	.	.	.	.	.	.	.	.	.	.	.	.	32G\JJk	.	.	.	.	.	.	.
!LO:LB:g=original	!	!	!	!	!	!	!LO:LB:g=original	!	!	!	!	!	!	!	!	!	!	!	!	!	!	!	!	!	!	!	!	!	!	!	!	!	!	!
=7	=7	=7	=7	=7	=7	=7	=7	=7	=7	=7	=7	=7	=7	=7	=7	=7	=7	=7	=7	=7	=7	=7	=7	=7	=7	=7	=7	=7	=7	=7	=7	=7	=7	=7
!	!	!	!LO:SIC:s=4c	!	!	!	! 	!	!	!	!	!	!	!	!	!	!	!	!	!	!	!	!	!	!	!	!	!	!	!	!	!	!LO:TX:t=P:problem=takt niejasny harmonicznie	!
4F\	5 3	.	4B-/	.	8A-X/ 8f	.	8ff\	.	8c\	tol-	.	2.r	.	.	2.r	.	.	2.r	.	.	2.r	.	2.r	.	2.r	.	16F\	.	2.r	.	2.r	.	2.r	.
.	.	.	.	.	.	.	.	.	.	.	.	.	.	.	.	.	.	.	.	.	.	.	.	.	.	.	4G-X^\	.	.	.	.	.	.	.
.	.	.	.	.	4cn/ 4en	.	4An/ 4g-X	.	4e-^\	.	.	.	.	.	.	.	.	.	.	.	.	.	.	.	.	.	.	.	.	.	.	.	.	.
4G-X\	-7 5 3	.	4G-X/	.	.	.	.	.	.	.	.	.	.	.	.	.	.	.	.	.	.	.	.	.	.	.	.	.	.	.	.	.	.	.
.	.	.	.	.	.	.	.	.	.	.	.	.	.	.	.	.	.	.	.	.	.	.	.	.	.	.	16An\LL	.	.	.	.	.	.	.
.	.	.	.	.	8c/ 8e	.	8A/ 8g-	.	16d-\LL	-is	.	.	.	.	.	.	.	.	.	.	.	.	.	.	.	.	16c\	.	.	.	.	.	.	.
.	.	.	.	.	.	.	.	.	16c\JJ	pec-	.	.	.	.	.	.	.	.	.	.	.	.	.	.	.	.	16e-\JJ	.	.	.	.	.	.	.
4r	.	.	4r	.	4Bn/ 4dn	.	4G/ 4f	.	16Bn\LL	-ca-	.	.	.	.	.	.	.	.	.	.	.	.	.	.	.	.	(16f\LL	.	.	.	.	.	.	.
.	.	.	.	.	.	.	.	.	16c\	.	.	.	.	.	.	.	.	.	.	.	.	.	.	.	.	.	16e-\)	.	.	.	.	.	.	.
.	.	.	.	.	.	.	.	.	16dn\	-ta	.	.	.	.	.	.	.	.	.	.	.	.	.	.	.	.	16d-'\	.	.	.	.	.	.	.
.	.	.	.	.	.	.	.	.	16B\JJ	.	.	.	.	.	.	.	.	.	.	.	.	.	.	.	.	.	16f\JJ	.	.	.	.	.	.	.
!	!	!	!LO:LB:g=original	!	!LO:LB:g=original	!	!	!	!	!	!	!	!	!	!	!	!	!	!	!	!	!	!	!	!	!	!	!	!	!	!	!	!	!
=8	=8	=8	=8	=8	=8	=8	=8	=8	=8	=8	=8	=8	=8	=8	=8	=8	=8	=8	=8	=8	=8	=8	=8	=8	=8	=8	=8	=8	=8	=8	=8	=8	=8	=8
!	!	!	!	!	!LO:TX:t=P:problem=mixed beam	!	!LO:TX:t=P:problem=mixed beam	!	!	!	!	!	!	!	!	!	!	!	!	!	!	!	!	!	!	!	!	!	!	!	!	!	!	!
!	!	!	!	!	!	!	!	!LO:DY:b	!	!	!	!	!	!	!	!	!	!	!	!	!	!	!	!	!	!	!	!	!	!	!	!	!	!
4C/	5_ -3_	.	4c\	.	16c/LL	.	16G/LL 16e-	f	4c\	mun-	.	2.r	.	.	2.r	.	.	2.r	.	.	2.r	.	2.r	.	2.r	.	4e-\	.	2.r	.	2.r	.	2.r	.
.	.	.	.	.	16cc\	.	16ccc/	.	.	.	.	.	.	.	.	.	.	.	.	.	.	.	.	.	.	.	.	.	.	.	.	.	.	.
.	.	.	.	.	16dd-X\	.	(16ddd-X\	.	.	.	.	.	.	.	.	.	.	.	.	.	.	.	.	.	.	.	.	.	.	.	.	.	.	.
.	.	.	.	.	16b-X\JJ	.	16bb-\JJ)	.	.	.	.	.	.	.	.	.	.	.	.	.	.	.	.	.	.	.	.	.	.	.	.	.	.	.
4C/	.	.	4c\	.	16g/LL	.	(16gg\LL	.	4C/	-di	.	.	.	.	.	.	.	.	.	.	.	.	.	.	.	.	4E-\	.	.	.	.	.	.	.
.	.	.	.	.	16e-/	.	16ee-X\)	.	.	.	.	.	.	.	.	.	.	.	.	.	.	.	.	.	.	.	.	.	.	.	.	.	.	.
!	!	!	!	!	!	!	!LO:SIC:s=16ddn	!	!	!	!	!	!	!	!	!	!	!	!	!	!	!	!	!	!	!	!	!	!	!	!	!	!	!
.	.	.	.	.	16dn/	.	(16dd-\	.	.	.	.	.	.	.	.	.	.	.	.	.	.	.	.	.	.	.	.	.	.	.	.	.	.	.
.	.	.	.	.	16e-/JJ	.	16ee-\JJ)	.	.	.	.	.	.	.	.	.	.	.	.	.	.	.	.	.	.	.	.	.	.	.	.	.	.	.
4r	.	.	4r	.	16f/LL	.	(16ff\LL	.	4r	.	.	.	.	.	.	.	.	.	.	.	.	.	.	.	.	.	4r	.	.	.	.	.	.	.
.	.	.	.	.	16e-/	.	16ee-\)	.	.	.	.	.	.	.	.	.	.	.	.	.	.	.	.	.	.	.	.	.	.	.	.	.	.	.
.	.	.	.	.	16d-X/	.	(16dd-X'\	.	.	.	.	.	.	.	.	.	.	.	.	.	.	.	.	.	.	.	.	.	.	.	.	.	.	.
.	.	.	.	.	16B-X/JJ	.	16b-\JJ)	.	.	.	.	.	.	.	.	.	.	.	.	.	.	.	.	.	.	.	.	.	.	.	.	.	.	.
=9	=9	=9	=9	=9	=9	=9	=9	=9	=9	=9	=9	=9	=9	=9	=9	=9	=9	=9	=9	=9	=9	=9	=9	=9	=9	=9	=9	=9	=9	=9	=9	=9	=9	=9
!	!	!	!	!	!	!	!	!	! 	!	!	! 	!	!LO:DY:b:t=fo	! 	!	!	!	!	!LO:DY:b	!	!	!	!	!	!	!	!	!	!	!	!	!	!
4AA-/	5_ 3_	.	4A-/	.	8c/L	.	[4a-/	.	2A-\	Mi-	.	2e-\	Mi-	f	2cc\	Mi-	f	2e-/	mi-	f	2.r	.	2.r	.	2.r	.	4A-\	.	2.r	.	2.r	.	2.r	.
.	.	.	.	.	8c/J 8e-	.	.	.	.	.	.	.	.	.	.	.	.	.	.	.	.	.	.	.	.	.	.	.	.	.	.	.	.	.
4r	.	.	4r	.	8c/ 8e-L	.	16a-/LL]	.	.	.	.	.	.	.	.	.	.	.	.	.	.	.	.	.	.	.	4r	.	.	.	.	.	.	.
.	.	.	.	.	.	.	16e-/	.	.	.	.	.	.	.	.	.	.	.	.	.	.	.	.	.	.	.	.	.	.	.	.	.	.	.
.	.	.	.	.	8c/ 8e-	.	(16f/	.	.	.	.	.	.	.	.	.	.	.	.	.	.	.	.	.	.	.	.	.	.	.	.	.	.	.
.	.	.	.	.	.	.	16g/JJ)	.	.	.	.	.	.	.	.	.	.	.	.	.	.	.	.	.	.	.	.	.	.	.	.	.	.	.
4C\	.	.	4c\	.	8c/ 8e-	.	16a-/LL	.	4A-\	-se-	.	4e-\	-se-	.	4cc\	-se-	.	(8.cc\L	-se-	.	.	.	.	.	.	.	4r	.	.	.	.	.	.	.
.	.	.	.	.	.	.	16b-/	.	.	.	.	.	.	.	.	.	.	.	.	.	.	.	.	.	.	.	.	.	.	.	.	.	.	.
.	.	.	.	.	8c/ 8e-J	.	16cc/	.	.	.	.	.	.	.	.	.	.	.	.	.	.	.	.	.	.	.	.	.	.	.	.	.	.	.
.	.	.	.	.	.	.	16a-/JJ	.	.	.	.	.	.	.	.	.	.	16a-\Jk)	.	.	.	.	.	.	.	.	.	.	.	.	.	.	.	.
!	!	!	!	!	!	!	!	!	!LO:LB:g=original	!	!	!	!	!	!	!	!	!	!	!	!	!	!	!	!	!	!	!	!	!	!	!	!	!
=10	=10	=10	=10	=10	=10	=10	=10	=10	=10	=10	=10	=10	=10	=10	=10	=10	=10	=10	=10	=10	=10	=10	=10	=10	=10	=10	=10	=10	=10	=10	=10	=10	=10	=10
4D-X\	3_	.	4d-X\	.	8r	.	(8.a-/L	.	4d-\	-re-	.	4f\	-re-	.	4dd-\	-re-	.	8.a-\L	-re-	.	2.r	.	2.r	.	2.r	.	4r	.	4r	.	4r	.	4r	.
.	.	.	.	.	8d-X/ 8f	.	.	.	.	.	.	.	.	.	.	.	.	.	.	.	.	.	.	.	.	.	.	.	.	.	.	.	.	.
.	.	.	.	.	.	.	16f/Jk)	.	.	.	.	.	.	.	.	.	.	16f\Jk	.	.	.	.	.	.	.	.	.	.	.	.	.	.	.	.
4D-\	.	.	4d-\	.	8d-/ 8fL	.	4f/	.	4d-\	-re	.	4f\	-re	.	4dd-\	-re	.	4f\	-re	.	.	.	.	.	.	.	16r	.	4b-\	.	4dd-\	f	16r	.
.	.	.	.	.	.	.	.	.	.	.	.	.	.	.	.	.	.	.	.	.	.	.	.	.	.	.	16An\LL	.	.	.	.	.	16aan\LL	.
.	.	.	.	.	8d-/ 8f	.	.	.	.	.	.	.	.	.	.	.	.	.	.	.	.	.	.	.	.	.	16B-\	.	.	.	.	.	16bb-\	.
.	.	.	.	.	.	.	.	.	.	.	.	.	.	.	.	.	.	.	.	.	.	.	.	.	.	.	16c\JJ	.	.	.	.	.	16ccc\JJ	.
4r	.	.	4r	.	8d-/ 8f	.	4r	.	4r	.	.	4r	.	.	4r	.	.	4r	.	.	.	.	.	.	.	.	16d-X\LL	.	4b-\	.	4dd-\	.	16ddd-\LL	.
.	.	.	.	.	.	.	.	.	.	.	.	.	.	.	.	.	.	.	.	.	.	.	.	.	.	.	16c\	.	.	.	.	.	16ccc\	.
.	.	.	.	.	8d-/ 8fJ	.	.	.	.	.	.	.	.	.	.	.	.	.	.	.	.	.	.	.	.	.	16B-\	.	.	.	.	.	16bb-\	.
.	.	.	.	.	.	.	.	.	.	.	.	.	.	.	.	.	.	.	.	.	.	.	.	.	.	.	16A-X\JJ	.	.	.	.	.	16aa-X\JJ	.
=11	=11	=11	=11	=11	=11	=11	=11	=11	=11	=11	=11	=11	=11	=11	=11	=11	=11	=11	=11	=11	=11	=11	=11	=11	=11	=11	=11	=11	=11	=11	=11	=11	=11	=11
*	*	*	*	*	*	*	*	*	*	*	*	*	*ij	*	*	*ij	*	*	*	*	*	*	*	*	*	*	*	*	*	*	*	*	*	*
4E-\	3_	.	4e-\	.	8r	.	8r	.	4.E-\	qui	.	4.f\	Mi-	.	4.b-\	Mi-	.	4.dd-\	Mi-	.	2.r	.	2.r	.	2.r	.	8.A-\L	.	4b-\	.	4dd-\	.	8.aa-\L	.
.	.	.	.	.	8d-/ 8e-	.	8g/	.	.	.	.	.	.	.	.	.	.	.	.	.	.	.	.	.	.	.	.	.	.	.	.	.	.	.
.	.	.	.	.	.	.	.	.	.	.	.	.	.	.	.	.	.	.	.	.	.	.	.	.	.	.	16G\Jk	.	.	.	.	.	16gg\Jk	.
!	!	!	!	!	!LO:TX:a:t=Wi*	!	!	!	!	!	!	!	!	!	!	!	!	!	!	!	!	!	!	!	!	!	!	!	!	!	!	!	!	!
4E-\	.	.	4e-\	.	8d-/ 8e-L	.	8g/L	.	.	.	.	.	.	.	.	.	.	.	.	.	.	.	.	.	.	.	4G\	.	4b-\	.	16dd-\LL	.	4gg\	.
.	.	.	.	.	.	.	.	.	.	.	.	.	.	.	.	.	.	.	.	.	.	.	.	.	.	.	.	.	.	.	16gg\	.	.	.
!	!	!	!	!	!	!	!	!	!LO:SIC:s=tol-	!	!	! 	!	!	! 	!	!	!	!	!	!	!	!	!	!	!	!	!	!	!	!	!	!	!
.	.	.	.	.	8d-/ 8e-	.	16b-/L	.	8E-\	lot-	.	8f\	-se-	.	8b-\	-se-	.	8dd-\	-se-	.	.	.	.	.	.	.	.	.	.	.	16bb-\	.	.	.
.	.	.	.	.	.	.	16a-/JJ	.	.	.	.	.	.	.	.	.	.	.	.	.	.	.	.	.	.	.	.	.	.	.	16aa-\JJ	.	.	.
!	!	!	!	!	!	!	!	!	!LO:SIC:s=-lis	!	!	!	!	!	!	!	!	!	!	!	!	!	!	!	!	!	!	!	!	!	!	!	!	!
4r	.	.	4r	.	8d-/ 8e-	.	16g/LL	.	8E-\	-tis	.	8f\	-re-	.	8b-\	-re-	.	8dd-\	-re-	.	.	.	.	.	.	.	4r	.	4r	.	16gg\LL	.	4r	.
.	.	.	.	.	.	.	16f/	.	.	.	.	.	.	.	.	.	.	.	.	.	.	.	.	.	.	.	.	.	.	.	16ff\	.	.	.
.	.	.	.	.	8d-/ 8e-J	.	16e-/	.	8G\	pec-	.	8f\	-re	.	8b-\	-re	.	8dd-\	-re	.	.	.	.	.	.	.	.	.	.	.	16ee-\	.	.	.
.	.	.	.	.	.	.	16d-/JJ	.	.	.	.	.	.	.	.	.	.	.	.	.	.	.	.	.	.	.	.	.	.	.	16dd-\JJ	.	.	.
*	*	*	*	*	*	*	*	*	*	*	*	*	*Xij	*	*	*Xij	*	*	*	*	*	*	*	*	*	*	*	*	*	*	*	*	*	*
!	!	!	!	!	!	!	!LO:LB:g=original	!	!	!	!	!	!	!	!	!	!	!	!	!	!	!	!	!	!	!	!	!	!	!	!	!	!	!
!	!	!	!	!	!	!	!	!	!	!	!	!	!	!	!	!	!	!	!	!	!	!	!	!	!	!	!LO:LB:g=original	!	!	!	!LO:LB:g=original	!	!	!
=12	=12	=12	=12	=12	=12	=12	=12	=12	=12	=12	=12	=12	=12	=12	=12	=12	=12	=12	=12	=12	=12	=12	=12	=12	=12	=12	=12	=12	=12	=12	=12	=12	=12	=12
!	!	!	!	!	!LO:TX:t=P:problem=takty 12-15 - rozpisane vide	!	!	!	!	!	!	!	!	!	!	!	!	!	!	!	!	!	!	!	!	!	!	!	!	!	!	!	!	!
! 	!	!LO:DY:a	!	!	!LO:TX:a:t=De*	!	!	!	!	!	!	!	!	!	!	!	!	!	!	!	!	!	!	!	!	!	!	!	!	!	!	!	!	!
!	!	!	!	!LO:DY:b	!	!	!	!	!	!	!	!	!	!	!	!	!	!	!	!	!	!	!	!	!	!	!	!	!	!	!	!	!	!
8.E-\L	.	>	8.A-/L	<	8r	.	4d-/	.	4A-\	-ca-	.	4e-\	no-	.	4b-\	no-	.	4dd-\	no-	.	2.r	.	2.r	.	2.r	.	4A-\	.	4r	.	4dd-\	.	4r	.
.	.	.	.	.	8c/ 8e-	.	.	.	.	.	.	.	.	.	.	.	.	.	.	.	.	.	.	.	.	.	.	.	.	.	.	.	.	.
16C\Jk	.	.	16c/Jk	.	.	.	.	.	.	.	.	.	.	.	.	.	.	.	.	.	.	.	.	.	.	.	.	.	.	.	.	.	.	.
4AA-/	.	]	4e-\	[	8c/ 8e-L	.	(16c/LL	.	4AA-/	-ta	.	4e-\	-bis	.	4a-\	-bis	.	4cc\	-bis	.	.	.	.	.	.	.	8r	.	4cc\	.	4cc\	.	(16cc\LL	.
.	.	.	.	.	.	.	16e-/)	.	.	.	.	.	.	.	.	.	.	.	.	.	.	.	.	.	.	.	.	.	.	.	.	.	16ee-\	.
.	.	.	.	.	8c/ 8e-	.	(16f/	.	.	.	.	.	.	.	.	.	.	.	.	.	.	.	.	.	.	.	8e-\L	.	.	.	.	.	16ff\	.
.	.	.	.	.	.	.	16g/JJ)	.	.	.	.	.	.	.	.	.	.	.	.	.	.	.	.	.	.	.	.	.	.	.	.	.	16gg\JJ)	.
4r	.	.	4r	.	8c/ 8e-	.	(16a-\LL	.	4r	.	.	4r	.	.	4r	.	.	4r	.	.	.	.	.	.	.	.	8c\	.	4cc\	.	4ee-\	.	(16aa-\LL	.
.	.	.	.	.	.	.	16b-\)	.	.	.	.	.	.	.	.	.	.	.	.	.	.	.	.	.	.	.	.	.	.	.	.	.	16bb-\	.
.	.	.	.	.	8c/ 8e-J	.	16cc'\	.	.	.	.	.	.	.	.	.	.	.	.	.	.	.	.	.	.	.	8A-\J	.	.	.	.	.	16ccc\	.
.	.	.	.	.	.	.	16a-\JJ	.	.	.	.	.	.	.	.	.	.	.	.	.	.	.	.	.	.	.	.	.	.	.	.	.	16aa-\JJ)	.
!	!	!	!	!	!	!	!	!	!	!	!	!	!	!	!	!	!	!	!	!	!	!	!	!	!	!	!	!	!	!	!	!	!LO:LB:g=original	!
=13	=13	=13	=13	=13	=13	=13	=13	=13	=13	=13	=13	=13	=13	=13	=13	=13	=13	=13	=13	=13	=13	=13	=13	=13	=13	=13	=13	=13	=13	=13	=13	=13	=13	=13
!	!	!LO:DY:a	!	!	!	!	!	!	!	!	!	!	!	!	!	!	!	! 	!	!	!	!	!	!	!	!	!	!	!	!	!	!	!	!
8.F\L	.	>	8.B-/L	<	8r	.	4f/	.	2d-\	Mi-	.	2d-X\	Mi-	.	2b-\	mi-	.	2ff\	Mi-	.	2.r	.	2.r	.	2.r	.	4d-\	.	4dd-\	.	4ff\	.	4ff\	.
.	.	.	.	.	8d-X/ 8f	.	.	.	.	.	.	.	.	.	.	.	.	.	.	.	.	.	.	.	.	.	.	.	.	.	.	.	.	.
16D-X\Jk	.	.	16d-X/Jk	.	.	.	.	.	.	.	.	.	.	.	.	.	.	.	.	.	.	.	.	.	.	.	.	.	.	.	.	.	.	.
!	!	!	!	!	!	!	!	!	!	!	!	!	!	!	!	!	!	!	!	!	!	!	!	!	!	!	!LO:N:vis=8	!	!	!	!	!	!	!
4BB-/	.	]	4f\	[	8d-/ 8fL	.	16r	.	.	.	.	.	.	.	.	.	.	.	.	.	.	.	.	.	.	.	16r	.	4dd-\	.	4ff\	.	16r	.
.	.	.	.	.	.	.	16ff'\LL	.	.	.	.	.	.	.	.	.	.	.	.	.	.	.	.	.	.	.	16A-\LL	.	.	.	.	.	(16aan\LL	.
.	.	.	.	.	8d-/ 8f	.	(16gg\	.	.	.	.	.	.	.	.	.	.	.	.	.	.	.	.	.	.	.	16B-\	.	.	.	.	.	16bb-\	.
.	.	.	.	.	.	.	16aan\JJ)	.	.	.	.	.	.	.	.	.	.	.	.	.	.	.	.	.	.	.	16c\JJ	.	.	.	.	.	16ccc\JJ	.
4r	.	.	4r	.	8d-/ 8f	.	(16bb-\LL	.	4d-\	-se-	.	4d-\	-se-	.	4b-\	-se-	.	4ff\	-se-	.	.	.	.	.	.	.	8d-X\L	.	4r	.	4r	.	16ddd-X\LL	.
.	.	.	.	.	.	.	16ccc\)	.	.	.	.	.	.	.	.	.	.	.	.	.	.	.	.	.	.	.	.	.	.	.	.	.	16eee-\	.
.	.	.	.	.	8d-/ 8fJ	.	(16ddd-X\	.	.	.	.	.	.	.	.	.	.	.	.	.	.	.	.	.	.	.	8f\J	.	.	.	.	.	16fff\)	.
.	.	.	.	.	.	.	16bbn\JJ)	.	.	.	.	.	.	.	.	.	.	.	.	.	.	.	.	.	.	.	.	.	.	.	.	.	16bbn\JJ	.
!	!	!	!	!	!	!	!	!	!	!	!	!LO:LB:g=original	!	!	!	!	!	!	!	!	!	!	!	!	!	!	!	!	!	!	!	!	!	!
=14	=14	=14	=14	=14	=14	=14	=14	=14	=14	=14	=14	=14	=14	=14	=14	=14	=14	=14	=14	=14	=14	=14	=14	=14	=14	=14	=14	=14	=14	=14	=14	=14	=14	=14
!	!	!LO:DY:b	!	!LO:DY:b	!	!	!	!	!	!	!	!	!	!	!	!	!	!	!	!	!	!	!	!	!	!	!	!	!	!	!	!	!	!
4C/	.	f	4cc\	f	8c/ 8e-	.	16ccc\LL	.	(4c\	-re-	.	(4c\	-re-	.	2a-\	-re-	.	(4ee-\	-re-	.	2.r	.	2.r	.	2.r	.	4e-\	.	4cc\	.	4cc\	.	8ccc\L	.
.	.	.	.	.	.	.	16gg\	.	.	.	.	.	.	.	.	.	.	.	.	.	.	.	.	.	.	.	.	.	.	.	.	.	.	.
.	.	.	.	.	8r	.	16aa-X\	.	.	.	.	.	.	.	.	.	.	.	.	.	.	.	.	.	.	.	.	.	.	.	.	.	8eee-\J	.
.	.	.	.	.	.	.	16een\JJ	.	.	.	.	.	.	.	.	.	.	.	.	.	.	.	.	.	.	.	.	.	.	.	.	.	.	.
4r	.	.	4r	.	8d-X/ 8f	.	16ff\LL	.	4d-\)	.	.	4d-\)	.	.	.	.	.	4ff\)	.	.	.	.	.	.	.	.	4r	.	4r	.	4r	.	16fff\LL	.
.	.	.	.	.	.	.	16cc\	.	.	.	.	.	.	.	.	.	.	.	.	.	.	.	.	.	.	.	.	.	.	.	.	.	16ccc\	.
.	.	.	.	.	8r	.	16dd-\	.	.	.	.	.	.	.	.	.	.	.	.	.	.	.	.	.	.	.	.	.	.	.	.	.	16ddd-X\	.
.	.	.	.	.	.	.	16an\JJ	.	.	.	.	.	.	.	.	.	.	.	.	.	.	.	.	.	.	.	.	.	.	.	.	.	16aan\JJ	.
4D-X/	.	.	4d-X\	.	8d-/ 8f	.	16b-\LL	.	4d-\	-re	.	4d-\	-re	.	4a-\	-re	.	4ff\	-re	.	.	.	.	.	.	.	8f\L	.	4dd-\	.	4ff\	.	16bb-\LL	.
.	.	.	.	.	.	.	16cc\	.	.	.	.	.	.	.	.	.	.	.	.	.	.	.	.	.	.	.	.	.	.	.	.	.	16ccc\	.
.	.	.	.	.	8r	.	16dd-\	.	.	.	.	.	.	.	.	.	.	.	.	.	.	.	.	.	.	.	8d-\J	.	.	.	.	.	16ddd-\	.
.	.	.	.	.	.	.	16ff\JJ	.	.	.	.	.	.	.	.	.	.	.	.	.	.	.	.	.	.	.	.	.	.	.	.	.	16fff\JJ	.
!	!	!	!	!	!	!	!	!	!	!	!	!	!	!	!LO:LB:g=original	!	!	!	!	!	!	!	!	!	!	!	!	!	!	!	!	!	!	!
=15	=15	=15	=15	=15	=15	=15	=15	=15	=15	=15	=15	=15	=15	=15	=15	=15	=15	=15	=15	=15	=15	=15	=15	=15	=15	=15	=15	=15	=15	=15	=15	=15	=15	=15
4C/	.	.	(4e-\	.	8r	.	16r	.	(4e-\	no-	.	(4c\	no-	.	(4a-\	no-	.	(4ee-\	no-	.	2.r	.	2.r	.	2.r	.	8e-\	.	4cc\	.	4ee-\	.	8ccc\L	.
.	.	.	.	.	.	.	16ee-\LL	.	.	.	.	.	.	.	.	.	.	.	.	.	.	.	.	.	.	.	.	.	.	.	.	.	.	.
.	.	.	.	.	8c/ 8e-	.	16ccc\	.	.	.	.	.	.	.	.	.	.	.	.	.	.	.	.	.	.	.	4E-^\	.	.	.	.	.	8eee-\	.
.	.	.	.	.	.	.	16aa-\JJ	.	.	.	.	.	.	.	.	.	.	.	.	.	.	.	.	.	.	.	.	.	.	.	.	.	.	.
!	!	!	!	!	!LO:TX:a:t=Re	!	!	!	!	!	!	!	!	!	!	!	!	!	!	!	!	!	!	!	!	!	!	!	!	!	!	!	!	!
4D-/	.	.	4d-\	.	8d-/ 8e-L	.	16aa-\LL	.	4G\	.	.	4e-\)	.	.	4b-\	.	.	4dd-X\	.	.	.	.	.	.	.	.	.	.	4r	.	4r	.	8ddd-\	.
.	.	.	.	.	.	.	16gg\	.	.	.	.	.	.	.	.	.	.	.	.	.	.	.	.	.	.	.	.	.	.	.	.	.	.	.
.	.	.	.	.	8d-/ 8e-	.	16ddd-\	.	.	.	.	.	.	.	.	.	.	.	.	.	.	.	.	.	.	.	8E-\	.	.	.	.	.	8fff\J	.
.	.	.	.	.	.	.	16bb-\JJ	.	.	.	.	.	.	.	.	.	.	.	.	.	.	.	.	.	.	.	.	.	.	.	.	.	.	.
!	!	!	!LO:SIC:s=4B-	!	!	!	!	!	!	!	!	!	!	!	!	!	!	!	!	!	!	!	!	!	!	!	!	!	!	!	!	!	!	!
4E-/	.	.	4c\)	.	8d-/ 8e-	.	16gg\LL	.	4E-\)	.	.	4d-\	.	.	4d-X\)	.	.	4b-\)	.	.	.	.	.	.	.	.	16E-\LL	.	4dd-\	.	4gg\	.	8bb-\L	.
.	.	.	.	.	.	.	16ee-\	.	.	.	.	.	.	.	.	.	.	.	.	.	.	.	.	.	.	.	16G\	.	.	.	.	.	.	.
.	.	.	.	.	8d-/ 8e-J	.	16dd-\	.	.	.	.	.	.	.	.	.	.	.	.	.	.	.	.	.	.	.	16B-\	.	.	.	.	.	8ddd-\J	.
.	.	.	.	.	.	.	16b-\JJ	.	.	.	.	.	.	.	.	.	.	.	.	.	.	.	.	.	.	.	16d-\JJ	.	.	.	.	.	.	.
!	!	!	!	!	!	!	!	!	!	!	!	!	!	!	!	!	!	!LO:LB:g=original	!	!	!	!	!	!	!	!	!	!	!	!	!	!	!	!
!	!	!	!	!	!	!	!LO:LB:g=original	!	!	!	!	!	!	!	!	!	!	!	!	!	!	!	!	!	!	!	!	!	!	!	!	!	!	!
=16	=16	=16	=16	=16	=16	=16	=16	=16	=16	=16	=16	=16	=16	=16	=16	=16	=16	=16	=16	=16	=16	=16	=16	=16	=16	=16	=16	=16	=16	=16	=16	=16	=16	=16
!	!	!	!	!	!LO:TX:a:t=Tro	!	!	!	!	!	!	!	!	!	!	!	!	!	!	!	!	!	!	!	!	!	!	!	!	!	!	!	!	!
4AA-X/	.	.	4A-X/	.	4c/ 4e-	.	4a-/	.	4A-\	-bis	.	4c\	-biſ	.	4c\	-bis	.	4a-\	-bis	.	2.r	.	2.r	.	2.r	.	4c\	.	4cc\	.	4aa-\	.	4ccc\	.
4r	.	.	4r	.	(8c/L	.	8A-/L	.	4r	.	.	4r	.	.	4r	.	.	4r	.	.	.	.	.	.	.	.	4r	.	4r	.	4r	.	4r	.
.	.	.	.	.	8f/	.	8a-/	.	.	.	.	.	.	.	.	.	.	.	.	.	.	.	.	.	.	.	.	.	.	.	.	.	.	.
4r	.	.	4r	.	8en/)	.	8g/	.	4r	.	.	4r	.	.	4r	.	.	4r	.	.	.	.	.	.	.	.	4r	.	4r	.	4r	.	4r	.
!	!	!	!	!	!	!	!LO:SIC:s=8bn	!	!	!	!	!	!	!	!	!	!	!	!	!	!	!	!	!	!	!	!	!	!	!	!	!	!	!
.	.	.	.	.	8G/J 8f	.	8dn/J 8b-X	.	.	.	.	.	.	.	.	.	.	.	.	.	.	.	.	.	.	.	.	.	.	.	.	.	.	.
!LO:LB:g=original	!	!	!	!	!	!	!	!	!	!	!	!	!	!	!	!	!	!	!	!	!	!	!	!	!	!	!	!	!	!	!	!	!	!
=17	=17	=17	=17	=17	=17	=17	=17	=17	=17	=17	=17	=17	=17	=17	=17	=17	=17	=17	=17	=17	=17	=17	=17	=17	=17	=17	=17	=17	=17	=17	=17	=17	=17	=17
!	!	!	!	!	!	!	!	!	!LO:TX:a:t=10	!	!	!LO:TX:a:i:t=Solo	!	!	!LO:TX:a:t=10	!	!	!LO:TX:a:t=10	!	!	!	!	!	!	!	!	!	!	!	!	!LO:TX:a:t=4	!	!LO:TX:a:t=4	!
!	!	!LO:DY:b	!	!LO:DY:b	!	!	!	!LO:DY:b	!	!	!	!	!	!	!	!	!	!	!	!	!	!	!	!	!	!	!	!	!	!	!	!	!	!
4C\	.	p	4cc\	p	8r	.	8r	p	2.r	.	.	(4c\	A-	.	2.r	.	.	2.r	.	.	2.r	.	2.r	.	2.r	.	4C/	p	2.r	.	2.r	.	2.r	.
.	.	.	.	.	8G/	.	8c/ 8e-	.	.	.	.	.	.	.	.	.	.	.	.	.	.	.	.	.	.	.	.	.	.	.	.	.	.	.
*	*	*	*	*	*	*	*tremolo	*	*	*	*	*	*	*	*	*	*	*	*	*	*	*	*	*	*	*	*	*	*	*	*	*	*	*
4r	.	.	4r	.	8G/L	.	8c/ 8e-L	.	.	.	.	16G/LL	.	.	.	.	.	.	.	.	.	.	.	.	.	.	4c\	.	.	.	.	.	.	.
.	.	.	.	.	.	.	.	.	.	.	.	32A-/L	.	.	.	.	.	.	.	.	.	.	.	.	.	.	.	.	.	.	.	.	.	.
.	.	.	.	.	.	.	.	.	.	.	.	32Bn/JJJ	.	.	.	.	.	.	.	.	.	.	.	.	.	.	.	.	.	.	.	.	.	.
.	.	.	.	.	8G/	.	8c/ 8e-	.	.	.	.	32c\LLL	.	.	.	.	.	.	.	.	.	.	.	.	.	.	.	.	.	.	.	.	.	.
.	.	.	.	.	.	.	.	.	.	.	.	32dn\	.	.	.	.	.	.	.	.	.	.	.	.	.	.	.	.	.	.	.	.	.	.
.	.	.	.	.	.	.	.	.	.	.	.	32e-\	.	.	.	.	.	.	.	.	.	.	.	.	.	.	.	.	.	.	.	.	.	.
.	.	.	.	.	.	.	.	.	.	.	.	32f\JJJ	.	.	.	.	.	.	.	.	.	.	.	.	.	.	.	.	.	.	.	.	.	.
4r	.	.	4r	.	8G/	.	8c/ 8e-	.	.	.	.	16g\LL)	.	.	.	.	.	.	.	.	.	.	.	.	.	.	4r	.	.	.	.	.	.	.
.	.	.	.	.	.	.	.	.	.	.	.	16d\	.	.	.	.	.	.	.	.	.	.	.	.	.	.	.	.	.	.	.	.	.	.
.	.	.	.	.	8G/J	.	8c/ 8e-J	.	.	.	.	16e-\	.	.	.	.	.	.	.	.	.	.	.	.	.	.	.	.	.	.	.	.	.	.
.	.	.	.	.	.	.	.	.	.	.	.	16c\JJ	-gnus	.	.	.	.	.	.	.	.	.	.	.	.	.	.	.	.	.	.	.	.	.
=18	=18	=18	=18	=18	=18	=18	=18	=18	=18	=18	=18	=18	=18	=18	=18	=18	=18	=18	=18	=18	=18	=18	=18	=18	=18	=18	=18	=18	=18	=18	=18	=18	=18	=18
4G\	n3	.	4g\	.	8r	.	8r	.	2.r	.	.	(8.Bn\L	De-	.	2.r	.	.	2.r	.	.	2.r	.	2.r	.	2.r	.	4G\	.	2.r	.	2.r	.	2.r	.
.	.	.	.	.	8Bn/ 8dn	.	8G/ 8f	.	.	.	.	.	.	.	.	.	.	.	.	.	.	.	.	.	.	.	.	.	.	.	.	.	.	.
!	!	!	!	!	!	!	!	!	!	!	!	!LO:SIC:s=16dn	!	!	!	!	!	!	!	!	!	!	!	!	!	!	!	!	!	!	!	!	!	!
.	.	.	.	.	.	.	.	.	.	.	.	16d-\Jk)	.	.	.	.	.	.	.	.	.	.	.	.	.	.	.	.	.	.	.	.	.	.
4r	.	.	4r	.	8B/ 8dL	.	8G/ 8fL	.	.	.	.	4G'/	-i	.	.	.	.	.	.	.	.	.	.	.	.	.	4G\	.	.	.	.	.	.	.
.	.	.	.	.	8B/ 8d	.	8G/ 8f	.	.	.	.	.	.	.	.	.	.	.	.	.	.	.	.	.	.	.	.	.	.	.	.	.	.	.
4r	.	.	4r	.	8B/ 8d	.	8G/ 8f	.	.	.	.	8.r	.	.	.	.	.	.	.	.	.	.	.	.	.	.	4r	.	.	.	.	.	.	.
.	.	.	.	.	8B/ 8dJ	.	8G/ 8fJ	.	.	.	.	.	.	.	.	.	.	.	.	.	.	.	.	.	.	.	.	.	.	.	.	.	.	.
.	.	.	.	.	.	.	.	.	.	.	.	16G/	qui	.	.	.	.	.	.	.	.	.	.	.	.	.	.	.	.	.	.	.	.	.
!	!	!	!	!	!	!	!	!	!	!	!	!LO:LB:g=original	!	!	!	!	!	!	!	!	!	!	!	!	!	!	!	!	!	!	!	!	!	!
=19	=19	=19	=19	=19	=19	=19	=19	=19	=19	=19	=19	=19	=19	=19	=19	=19	=19	=19	=19	=19	=19	=19	=19	=19	=19	=19	=19	=19	=19	=19	=19	=19	=19	=19
!	!	!	!	!	!	!	!	!	!	!	!	!LO:SIC:s=tol-	!	!	!	!	!	!	!	!	!	!	!	!	!	!	!LO:TX:t=P:problem=brak taktu	!	!	!	!	!	!	!
4G\	7 5	.	4g\	.	8r	.	8r	.	2.r	.	.	4A-\	to-	.	2.r	.	.	2.r	.	.	2.r	.	2.r	.	2.r	.	2.ryy	.	2.r	.	2.r	.	2.r	.
!	!	!	!	!	!	!	!LO:SIC:s=8G	!	!	!	!	!	!	!	!	!	!	!	!	!	!	!	!	!	!	!	!	!	!	!	!	!	!	!
.	.	.	.	.	8Bn/ 8dn	.	8A-/ 8f	.	.	.	.	.	.	.	.	.	.	.	.	.	.	.	.	.	.	.	.	.	.	.	.	.	.	.
!	!	!	!	!	!	!	!LO:SIC:s=2G	!	!	!	!	!	!	!	!	!	!	!	!	!	!	!	!	!	!	!	!	!	!	!	!	!	!	!
4r	.	.	4r	.	8B/ 8dL	.	8A-/ 8fL	.	.	.	.	4.G\	-lis	.	.	.	.	.	.	.	.	.	.	.	.	.	.	.	.	.	.	.	.	.
.	.	.	.	.	8B/ 8d	.	8A-/ 8f	.	.	.	.	.	.	.	.	.	.	.	.	.	.	.	.	.	.	.	.	.	.	.	.	.	.	.
4r	.	.	4r	.	8B/ 8d	.	8A-/ 8f	.	.	.	.	.	.	.	.	.	.	.	.	.	.	.	.	.	.	.	.	.	.	.	.	.	.	.
.	.	.	.	.	8B/ 8dJ	.	8A-/ 8fJ	.	.	.	.	8Bn\	pec-	.	.	.	.	.	.	.	.	.	.	.	.	.	.	.	.	.	.	.	.	.
!	!	!	!	!	!LO:LB:g=original	!	!	!	!	!	!	!	!	!	!	!	!	!	!	!	!	!	!	!	!	!	!	!	!	!	!	!	!	!
=20	=20	=20	=20	=20	=20	=20	=20	=20	=20	=20	=20	=20	=20	=20	=20	=20	=20	=20	=20	=20	=20	=20	=20	=20	=20	=20	=20	=20	=20	=20	=20	=20	=20	=20
4C\	3	.	4c\	.	8r	.	8r	.	2.r	.	.	(8.dn\L	-ca-	.	2.r	.	.	2.r	.	.	2.r	.	2.r	.	2.r	.	4C/	.	2.r	.	2.r	.	2.r	.
.	.	.	.	.	8c/	.	8G/ 8e-	.	.	.	.	.	.	.	.	.	.	.	.	.	.	.	.	.	.	.	.	.	.	.	.	.	.	.
.	.	.	.	.	.	.	.	.	.	.	.	16c\Jk)	.	.	.	.	.	.	.	.	.	.	.	.	.	.	.	.	.	.	.	.	.	.
4r	.	.	4r	.	8c/L	.	8G/ 8e-L	.	.	.	.	4c\	-ta	.	.	.	.	.	.	.	.	.	.	.	.	.	4c\	.	.	.	.	.	.	.
.	.	.	.	.	8c/	.	8G/ 8e-	.	.	.	.	.	.	.	.	.	.	.	.	.	.	.	.	.	.	.	.	.	.	.	.	.	.	.
4r	.	.	4r	.	8c/	.	8G/ 8e-	.	.	.	.	8.r	.	.	.	.	.	.	.	.	.	.	.	.	.	.	4r	.	.	.	.	.	.	.
.	.	.	.	.	8c/J	.	8G/ 8e-J	.	.	.	.	.	.	.	.	.	.	.	.	.	.	.	.	.	.	.	.	.	.	.	.	.	.	.
.	.	.	.	.	.	.	.	.	.	.	.	16c\	qui	.	.	.	.	.	.	.	.	.	.	.	.	.	.	.	.	.	.	.	.	.
*	*	*	*	*	*	*	*Xtremolo	*	*	*	*	*	*	*	*	*	*	*	*	*	*	*	*	*	*	*	*	*	*	*	*	*	*	*
!	!	!	!LO:LB:g=original	!	!	!	!	!	!	!	!	!	!	!	!	!	!	!	!	!	!	!	!	!	!	!	!	!	!	!	!	!	!	!
=21	=21	=21	=21||:	=21	=21	=21	=21	=21	=21	=21	=21	=21	=21	=21	=21	=21	=21	=21	=21	=21	=21	=21	=21	=21	=21	=21	=21	=21	=21	=21	=21	=21	=21	=21
!	!	!	!	!	!	!	!	!	!	!	!	!LO:SIC:s=tol-	!	!	!	!	!	!	!	!	!	!	!	!	!	!	!	!	!	!	!	!	!	!
4C/	-3	.	4c\	.	4c/	.	4G/ 4e-	.	2.r	.	.	8.g\L	to-	.	2.r	.	.	2.r	.	.	2.r	.	2.r	.	2.r	.	8.C\L	.	4g/	.	4cc\	.	4eee-\	.
.	.	.	.	.	.	.	.	.	.	.	.	16e-\Jk	.	.	.	.	.	.	.	.	.	.	.	.	.	.	16E-\Jk	.	.	.	.	.	.	.
4C/	.	.	4c\	.	4c/	.	4G/ 4e-	.	.	.	.	16c\LL	-lis	.	.	.	.	.	.	.	.	.	.	.	.	.	4G\	.	4g/	.	4cc\	.	4eee-\	.
.	.	.	.	.	.	.	.	.	.	.	.	16Bn\	.	.	.	.	.	.	.	.	.	.	.	.	.	.	.	.	.	.	.	.	.	.
.	.	.	.	.	.	.	.	.	.	.	.	16c\	.	.	.	.	.	.	.	.	.	.	.	.	.	.	.	.	.	.	.	.	.	.
.	.	.	.	.	.	.	.	.	.	.	.	16dn\JJ	.	.	.	.	.	.	.	.	.	.	.	.	.	.	.	.	.	.	.	.	.	.
4r	.	.	4r	.	4r	.	4r	.	.	.	.	16e-\LL	.	.	.	.	.	.	.	.	.	.	.	.	.	.	4r	.	4r	.	4r	.	4r	.
.	.	.	.	.	.	.	.	.	.	.	.	16d\	.	.	.	.	.	.	.	.	.	.	.	.	.	.	.	.	.	.	.	.	.	.
.	.	.	.	.	.	.	.	.	.	.	.	16e-\	pec-	.	.	.	.	.	.	.	.	.	.	.	.	.	.	.	.	.	.	.	.	.
.	.	.	.	.	.	.	.	.	.	.	.	16c\JJ	.	.	.	.	.	.	.	.	.	.	.	.	.	.	.	.	.	.	.	.	.	.
=22	=22	=22	=22:||	=22	=22	=22	=22	=22	=22	=22	=22	=22	=22	=22	=22	=22	=22	=22	=22	=22	=22	=22	=22	=22	=22	=22	=22	=22	=22	=22	=22	=22	=22	=22
!	!	!	!	!	!LO:SIC:s=4g s=4An	!	!	!	!	!	!	!	!	!	!	!	!	!	!	!	!	!	!	!	!	!	!	!	!	!	!	!	!	!
!	!	!	!	!	!	!LO:DY:b	!	!	!	!	!	!	!	!	!	!	!	!	!	!	!	!	!	!	!	!	!	!	!	!	!	!	!	!
4C/	#5_ 3_	.	4c\yy	.	4G/ 4g	f	4c/ 4e-	.	2.r	.	.	8.g-X\L	-ca-	.	2.r	.	.	2.r	.	.	2.r	.	2.r	.	2.r	.	8.C\L	.	4g-X/	.	4cc\	.	4eee-\	.
.	.	.	.	.	.	.	.	.	.	.	.	16Bn\Jk	.	.	.	.	.	.	.	.	.	.	.	.	.	.	16E-\Jk	.	.	.	.	.	.	.
!	!	!	!	!	!LO:SIC:s=4g s=4An	!	!	!	!	!	!	!	!	!	!	!	!	!	!	!	!	!	!	!	!	!	!	!	!	!	!	!	!	!
4C/	.	.	4c\yy	.	4G/ 4g	.	4c/ 4e-	.	.	.	.	16c\LL	-ta-	.	.	.	.	.	.	.	.	.	.	.	.	.	4G-X\	.	4g-/	.	4cc\	.	4eee-\	.
.	.	.	.	.	.	.	.	.	.	.	.	16B\	.	.	.	.	.	.	.	.	.	.	.	.	.	.	.	.	.	.	.	.	.	.
.	.	.	.	.	.	.	.	.	.	.	.	16c\	.	.	.	.	.	.	.	.	.	.	.	.	.	.	.	.	.	.	.	.	.	.
.	.	.	.	.	.	.	.	.	.	.	.	16d-\JJ	.	.	.	.	.	.	.	.	.	.	.	.	.	.	.	.	.	.	.	.	.	.
4r	.	.	4ryy	.	4r	.	4r	.	.	.	.	16e-\LL	.	.	.	.	.	.	.	.	.	.	.	.	.	.	4r	.	4r	.	4r	.	4r	.
.	.	.	.	.	.	.	.	.	.	.	.	16d-\	.	.	.	.	.	.	.	.	.	.	.	.	.	.	.	.	.	.	.	.	.	.
.	.	.	.	.	.	.	.	.	.	.	.	16e-\	.	.	.	.	.	.	.	.	.	.	.	.	.	.	.	.	.	.	.	.	.	.
.	.	.	.	.	.	.	.	.	.	.	.	16c\JJ	-pec-	.	.	.	.	.	.	.	.	.	.	.	.	.	.	.	.	.	.	.	.	.
*	*	*	*	*	*	*	*	*	*	*	*	*	*	*	*	*	*	*	*	*	*	*	*	*	*	*	*clefC4	*	*	*	*	*	*	*
!	!	!	!	!	!	!	!	!	!	!	!	!LO:LB:g=original	!	!	!	!	!	!	!	!	!	!	!	!	!	!LO:LB:g=original	!	!	!	!	!	!	!	!
=23	=23	=23	=23	=23	=23	=23	=23	=23	=23	=23	=23	=23	=23	=23	=23	=23	=23	=23	=23	=23	=23	=23	=23	=23	=23	=23	=23	=23	=23	=23	=23	=23	=23	=23
!	!	!	!	!	!	!	!	!	!	!	!	!	!	!	!	!	!	!	!	!	!	!	!	!	!	!	!LO:TX:a:i:t=Tenor	!	!	!	!	!	!	!
4C/	#5 3	.	4c\	.	4An/ 4g-X	.	4c/ 4e-	.	2.r	.	.	8.e-\	-ca-	.	2.r	.	.	2.r	.	.	2.r	.	2.r	.	2.r	.	8.c\L	.	4f#X/	.	4cc\	.	4eee-\	.
!	!	!	!	!	!	!	!	!	!	!	!	!	!	!	!	!	!	!	!	!	!	!	!	!	!	!	!LO:SIC:s=16dn	!	!	!	!	!	!	!
.	.	.	.	.	.	.	.	.	.	.	.	16e-\	-ta	.	.	.	.	.	.	.	.	.	.	.	.	.	16d-\Jk	.	.	.	.	.	.	.
4r	.	.	4r	.	4r	.	4r	.	.	.	.	(4dn\	mun-	.	.	.	.	.	.	.	.	.	.	.	.	.	4e-\	.	4r	.	4r	.	4r	.
4r	.	.	4r	.	4r	.	4r	.	.	.	.	4c\)	.	.	.	.	.	.	.	.	.	.	.	.	.	.	4f#X\	.	4r	.	4r	.	4r	.
!	!	!	!	!	!	!	!	!	!	!	!	!	!	!	!	!	!	!	!	!	!	!	!	!	!	!	!	!	!LO:LB:g=original	!	!	!	!	!
=24	=24	=24	=24	=24	=24	=24	=24	=24	=24	=24	=24	=24	=24	=24	=24	=24	=24	=24	=24	=24	=24	=24	=24	=24	=24	=24	=24	=24	=24	=24	=24	=24	=24	=24
!	!	!	!	!	!	!	!LO:SIC:s=4dn	!	!	!	!	!	!	!	!	!	!	!	!	!	!	!	!	!	!	!	!	!	!	!	!	!	!	!
!	!	!LO:DY:b	!	!LO:DY:b	!	!	!	!	!	!	!	!	!	!	!	!	!	!	!	!	!	!	!	!	!	!	!	!	!	!	!	!	!	!
8GG/L	.	f	8dn\L	f	4G/ 4g	.	4Bn/ 4d-	.	2.r	.	.	4Bn\	-di	.	2.r	.	.	2.r	.	.	2.r	.	2.r	.	2.r	.	4g\	.	8r	.	8r	.	(8bbn\L	.
8G\	.	.	8e-\	.	.	.	.	.	.	.	.	.	.	.	.	.	.	.	.	.	.	.	.	.	.	.	.	.	8g/L	.	8g'\L	.	8gg\	.
!	!	!	!	!	!	!	!LO:SIC:s=4dn	!	!	!	!	!	!	!	!	!	!	!	!	!	!	!	!	!	!	!	!	!	!	!	!	!	!	!
8F#X\	3	.	8fn\	.	4G/ 4g	.	4B/ 4d-	.	.	.	.	4r	.	.	.	.	.	.	.	.	.	.	.	.	.	.	4g\	.	8f#X/	.	8a'\	.	8aan\	.
8Fn\	n4 2	.	8f#X\	.	.	.	.	.	.	.	.	.	.	.	.	.	.	.	.	.	.	.	.	.	.	.	.	.	8f/	.	8bX'\	.	8bb\	.
8E-\	6 3	.	8g\	.	4r	.	4r	.	.	.	.	4r	.	.	.	.	.	.	.	.	.	.	.	.	.	.	4r	.	8e-/	.	8cc'\	.	8ccc\	.
8Dn\J	8 n6	.	8G/J	.	.	.	.	.	.	.	.	.	.	.	.	.	.	.	.	.	.	.	.	.	.	.	.	.	8d/J	.	8dd'\J	.	8dddn\J)	.
!	!	!	!	!	!	!	!	!	!	!	!	!	!	!	!	!	!	!	!	!	!	!	!	!	!	!	!	!	!	!	!	!	!LO:LB:g=original	!
=25	=25	=25	=25	=25	=25	=25	=25	=25	=25	=25	=25	=25	=25	=25	=25	=25	=25	=25	=25	=25	=25	=25	=25	=25	=25	=25	=25	=25	=25	=25	=25	=25	=25	=25
8.C\L	.	.	8.c\L	.	4An/ 4g-X	.	4c/ 4e-	.	2.r	.	.	8.e-\	Mi-	.	2.r	.	.	2.r	.	.	2.r	.	2.r	.	2.r	.	8.c\L	.	4c/	.	4ee-\	.	4eee-\	.
!	!	!	! 	!	!	!	!	!	!	!	!	!	!	!	!	!	!	!	!	!	!	!	!	!	!	!	!LO:SIC:s=16dn	!	!	!	!	!	!	!
16Dn\Jk	10 8	.	16dn\Jk	.	.	.	.	.	.	.	.	16e-\	-se-	.	.	.	.	.	.	.	.	.	.	.	.	.	16d-\Jk	.	.	.	.	.	.	.
!	!	!	!	!	!	!	!	!	!	!	!	!LO:SIC:s=4dn	!	!	!	!	!	!	!	!	!	!	!	!	!	!	!	!	!	!	!	!	!	!
4E-\	.	.	4e-\	.	4r	.	4r	.	.	.	.	4d-\	-re-	.	.	.	.	.	.	.	.	.	.	.	.	.	4e-\	.	4r	.	4r	.	4r	.
4F#X\	5 n3	.	4f#X\	.	4r	.	4r	.	.	.	.	4c\	-re	.	.	.	.	.	.	.	.	.	.	.	.	.	4f#X\	.	4r	.	4r	.	4r	.
!LO:LB:g=original	!	!	!	!	!	!	!	!	!	!	!	!	!	!	!	!	!	!	!	!	!	!	!	!	!	!	!	!	!	!	!	!	!	!
=26	=26	=26	=26	=26	=26	=26	=26	=26	=26	=26	=26	=26	=26	=26	=26	=26	=26	=26	=26	=26	=26	=26	=26	=26	=26	=26	=26	=26	=26	=26	=26	=26	=26	=26
4G\	n3	.	4g\	.	4Bn/ 4dn	.	(8g/L	.	2.r	.	.	4Bn\	no-	.	2.r	.	.	2.r	.	.	2.r	.	2.r	.	2.r	.	8g\	.	4r	.	4r	.	4r	.
*	*	*	*	*	*	*	*	*	*	*	*	*	*	*	*	*	*	*	*	*	*	*	*	*	*	*	*clefF4	*	*	*	*	*	*	*
.	.	.	.	.	.	.	8aa-X\	.	.	.	.	.	.	.	.	.	.	.	.	.	.	.	.	.	.	.	8BB-/	f	.	.	.	.	.	.
! 	!	!	! 	!	!	!	!	!	!	!	!	!LO:SIC:s=4B-	!	!	!	!	!	!	!	!	!	!	!	!	!	!	!LO:SIC:s=8Dn	!	!	!	!	!	!LO:SIC:s=4dddn	!
2Dn\	-5 3	.	2dn\	.	4B-X/ 4a-X	.	8ff\	.	.	.	.	4B\	-bis	.	.	.	.	.	.	.	.	.	.	.	.	.	8D-\L	.	4b-^\	.	4ff\	.	4ddd-\	.
.	.	.	.	.	.	.	8ddn\	.	.	.	.	.	.	.	.	.	.	.	.	.	.	.	.	.	.	.	8F\	.	.	.	.	.	.	.
.	.	.	.	.	4B-/ 4a-	.	8b-\	.	.	.	.	4r	.	.	.	.	.	.	.	.	.	.	.	.	.	.	8A-X\	.	4r	.	4r	.	4r	.
!	!	!	!	!	!	!	!	!	!	!	!	!	!	!	!	!	!	!	!	!	!	!	!	!	!	!	!LO:SIC:s=8dn	!	!	!	!	!	!	!
.	.	.	.	.	.	.	8dd\J)	.	.	.	.	.	.	.	.	.	.	.	.	.	.	.	.	.	.	.	8d-\J	.	.	.	.	.	.	.
!	!	!	!	!	!	!	!LO:LB:g=original	!	!	!	!	!	!	!	!	!	!	!	!	!	!	!	!	!	!	!	!	!	!	!	!	!	!	!
=27	=27	=27	=27	=27	=27	=27	=27	=27	=27	=27	=27	=27	=27	=27	=27	=27	=27	=27	=27	=27	=27	=27	=27	=27	=27	=27	=27	=27	=27	=27	=27	=27	=27	=27
!	!	!LO:DY:b	!	!	!	!	!	!LO:DY:b:t=ffr	!	!	!	!	!	!LO:DY:b	!	!	!	!	!	!	!	!	!	!	!	!	!	!	!LO:TX:a:t=4	!	!LO:TX:a:t=4	!	! 	!
4E-\	.	p	4e-\	.	8r	.	4.ee-\	f	2E-\	mi-	.	2g\	Mi-	f	2b-\	Mi-	.	2ee-\	Mi-	.	2.r	.	2.r	.	2.r	.	4e-\	.	2.r	.	2.r	.	2eee-\	f
.	.	.	.	.	8B-/ 8g	.	.	.	.	.	.	.	.	.	.	.	.	.	.	.	.	.	.	.	.	.	.	.	.	.	.	.	.	.
4r	.	.	4r	.	8B-/ 8gL	.	.	.	.	.	.	.	.	.	.	.	.	.	.	.	.	.	.	.	.	.	4r	.	.	.	.	.	.	.
.	.	.	.	.	8B-/ 8g	.	8b-\	.	.	.	.	.	.	.	.	.	.	.	.	.	.	.	.	.	.	.	.	.	.	.	.	.	.	.
4r	.	.	4r	.	8B-/ 8g	.	(8gg\L	.	4G\	-se-	.	4g\	-se-	.	4b-\	-se-	.	4ee-\	-se-	.	.	.	.	.	.	.	4G\	.	.	.	.	.	4eee-\	.
.	.	.	.	.	8B-/ 8gJ	.	8ee-\J)	.	.	.	.	.	.	.	.	.	.	.	.	.	.	.	.	.	.	.	.	.	.	.	.	.	.	.
!	!	!	!	!	!	!	!	!	!LO:LB:g=original	!	!	!	!	!	!	!	!	!	!	!	!	!	!	!	!	!	!	!	!	!	!	!	!	!
=28	=28	=28	=28	=28	=28	=28	=28	=28	=28	=28	=28	=28	=28	=28	=28	=28	=28	=28	=28	=28	=28	=28	=28	=28	=28	=28	=28	=28	=28	=28	=28	=28	=28	=28
!	!	!	!	!	!	!	!	!	!	!	!	!	!	!	!	!	!	!	!	!	!	!	!	!	!	!	!	!	!	!	!	!	!LO:SIC:s=4dddn	!
4AA-X/	6 3	.	4a-X\	.	8r	.	8.ddn\L	.	4A-\	-re-	.	4f\	-re-	.	4a-\	-re-	.	(8.ddn\L	-re-	.	2.r	.	2.r	.	2.r	.	4A-X\	.	2.r	.	2.r	.	4ddd-\	.
.	.	.	.	.	8A-/ 8f	.	.	.	.	.	.	.	.	.	.	.	.	.	.	.	.	.	.	.	.	.	.	.	.	.	.	.	.	.
.	.	.	.	.	.	.	16cc\Jk	.	.	.	.	.	.	.	.	.	.	16cc\Jk)	.	.	.	.	.	.	.	.	.	.	.	.	.	.	.	.
4r	.	.	4r	.	8c/ 8fL	.	4cc\	.	4A-\	-re	.	4f\	-re	.	4a-\	-re	.	4cc\	-re	.	.	.	.	.	.	.	4A-\	.	.	.	.	.	4ccc\	.
.	.	.	.	.	8c/ 8f	.	.	.	.	.	.	.	.	.	.	.	.	.	.	.	.	.	.	.	.	.	.	.	.	.	.	.	.	.
4r	.	.	4r	.	8c/ 8f	.	4r	.	4r	.	.	4r	.	.	4r	.	.	4r	.	.	.	.	.	.	.	.	4r	.	.	.	.	.	4r	.
.	.	.	.	.	8c/ 8fJ	.	.	.	.	.	.	.	.	.	.	.	.	.	.	.	.	.	.	.	.	.	.	.	.	.	.	.	.	.
=29	=29	=29	=29	=29	=29	=29	=29	=29	=29	=29	=29	=29	=29	=29	=29	=29	=29	=29	=29	=29	=29	=29	=29	=29	=29	=29	=29	=29	=29	=29	=29	=29	=29	=29
*	*	*	*	*	*	*	*	*	*	*ij	*	*	*ij	*	*	*ij	*	*	*	*	*	*	*	*	*	*	*	*	*	*	*	*	*	*
2F\	.	.	2f\	.	2A-/ 2f	.	8cc\L	.	2A-\	mi-	.	2f\	Mi-	.	2a-\	Mi-	.	2aa-\	Mi-	.	2.r	.	2.r	.	2.r	.	(8A-\L	.	2.r	.	2.r	.	2fff\	.
.	.	.	.	.	.	.	16ddn\L	.	.	.	.	.	.	.	.	.	.	.	.	.	.	.	.	.	.	.	8G\	.	.	.	.	.	.	.
.	.	.	.	.	.	.	16een\JJ	.	.	.	.	.	.	.	.	.	.	.	.	.	.	.	.	.	.	.	.	.	.	.	.	.	.	.
.	.	.	.	.	.	.	16ff\LL	.	.	.	.	.	.	.	.	.	.	.	.	.	.	.	.	.	.	.	8F\	.	.	.	.	.	.	.
.	.	.	.	.	.	.	16gg\	.	.	.	.	.	.	.	.	.	.	.	.	.	.	.	.	.	.	.	.	.	.	.	.	.	.	.
.	.	.	.	.	.	.	16aa-X\	.	.	.	.	.	.	.	.	.	.	.	.	.	.	.	.	.	.	.	8G\	.	.	.	.	.	.	.
.	.	.	.	.	.	.	16bb-\JJ	.	.	.	.	.	.	.	.	.	.	.	.	.	.	.	.	.	.	.	.	.	.	.	.	.	.	.
8A-X\L	.	.	8a-X\L	.	4A-/ 4f	.	16ccc\LL	.	4An\	-se-	.	4a-X\	-se-	.	4cc\	-se-	.	4ff\	-se-	.	.	.	.	.	.	.	8A-\)	.	.	.	.	.	4fff\	.
.	.	.	.	.	.	.	16gg\	.	.	.	.	.	.	.	.	.	.	.	.	.	.	.	.	.	.	.	.	.	.	.	.	.	.	.
8An\J	.	.	8an\J	.	.	.	16aa-\	.	.	.	.	.	.	.	.	.	.	.	.	.	.	.	.	.	.	.	8An\J	.	.	.	.	.	.	.
.	.	.	.	.	.	.	16ff\JJ	.	.	.	.	.	.	.	.	.	.	.	.	.	.	.	.	.	.	.	.	.	.	.	.	.	.	.
!	!	!	!	!	!	!	!	!	!	!	!	!LO:LB:g=original	!	!	!	!	!	!	!	!	!	!	!	!	!	!	!	!	!	!	!	!	!	!
=30	=30	=30	=30	=30	=30	=30	=30	=30	=30	=30	=30	=30	=30	=30	=30	=30	=30	=30	=30	=30	=30	=30	=30	=30	=30	=30	=30	=30	=30	=30	=30	=30	=30	=30
4B-\	.	.	4b-\	.	4B-/ 4g	.	4ee-X\	.	4B-\	-re-	.	4g\	-re-	.	4b-\	-re-	.	4ee-\	-re-	.	2.r	.	2.r	.	2.r	.	4B-\	.	2.r	.	2.r	.	4eee-\	.
!	!	!	!	!	!	!	!	!	!	!	!	!	!	!	!	!	!	!	!	!	!	!	!	!	!	!	!	!	!	!	!	!	!LO:SIC:s=4dddn	!
4BB-/	.	.	4B-/	.	4B-/ 4f	.	4ddn\	.	4BB-/	-re	.	4f\	-re	.	4b-\	-re	.	4ddn\	-re	.	.	.	.	.	.	.	16r	.	.	.	.	.	4ddd-\	.
!	!	!	!	!	!	!	!	!	!	!	!	!	!	!	!	!	!	!	!	!	!	!	!	!	!	!	!LO:TX:t=P:problem=mixed beam	!	!	!	!	!	!	!
*	*	*	*	*	*	*	*	*	*	*Xij	*	*	*	*	*	*	*	*	*	*	*	*	*	*	*	*	*	*	*	*	*	*	*	*
.	.	.	.	.	.	.	.	.	.	.	.	.	.	.	.	.	.	.	.	.	.	.	.	.	.	.	16BB-/LL	.	.	.	.	.	.	.
.	.	.	.	.	.	.	.	.	.	.	.	.	.	.	.	.	.	.	.	.	.	.	.	.	.	.	16B-\	.	.	.	.	.	.	.
.	.	.	.	.	.	.	.	.	.	.	.	.	.	.	.	.	.	.	.	.	.	.	.	.	.	.	16A-X\JJ	.	.	.	.	.	.	.
4r	.	.	4r	.	4r	.	4r	.	4r	.	.	4r	.	.	4r	.	.	4r	.	.	.	.	.	.	.	.	(16G\LL	.	.	.	.	.	4r	.
.	.	.	.	.	.	.	.	.	.	.	.	.	.	.	.	.	.	.	.	.	.	.	.	.	.	.	16F\)	.	.	.	.	.	.	.
.	.	.	.	.	.	.	.	.	.	.	.	.	.	.	.	.	.	.	.	.	.	.	.	.	.	.	16E-'\	.	.	.	.	.	.	.
!	!	!	!	!	!	!	!	!	!	!	!	!	!	!	!	!	!	!	!	!	!	!	!	!	!	!	!LO:SIC:s=16Dn	!	!	!	!	!	!	!
.	.	.	.	.	.	.	.	.	.	.	.	.	.	.	.	.	.	.	.	.	.	.	.	.	.	.	16D-'\JJ	.	.	.	.	.	.	.
!	!	!	!	!	!LO:LB:g=original	!	!	!	!	!	!	!	!	!	!	!	!	!	!	!	!	!	!	!	!	!	!	!	!	!	!	!	!	!
=31	=31	=31	=31	=31	=31	=31	=31	=31	=31	=31	=31	=31	=31	=31	=31	=31	=31	=31	=31	=31	=31	=31	=31	=31	=31	=31	=31	=31	=31	=31	=31	=31	=31	=31
!	!	!	!	!	!	!	!	!	!	!	!	!	!	!	!	!	!	!	!	!	!	!	!	!	!	!	!	!	! 	!	! 	!	!	!
4E-\	.	.	4e-\	.	8g/L	.	8ee-\	.	2E-\	Mi-	.	2g\	Mi-	.	2b-\	Mi-	.	2ee-\	Mi-	.	2.r	.	2.r	.	2.r	.	4E-\	.	2ee-\	.	2gg\	.	2eee-\	.
.	.	.	.	.	8B-/	.	4b-^\	.	.	.	.	.	.	.	.	.	.	.	.	.	.	.	.	.	.	.	.	.	.	.	.	.	.	.
4r	.	.	4r	.	8g/	.	.	.	.	.	.	.	.	.	.	.	.	.	.	.	.	.	.	.	.	.	4r	.	.	.	.	.	.	.
.	.	.	.	.	8B-/	.	16an\LL	.	.	.	.	.	.	.	.	.	.	.	.	.	.	.	.	.	.	.	.	.	.	.	.	.	.	.
.	.	.	.	.	.	.	16b-\JJ	.	.	.	.	.	.	.	.	.	.	.	.	.	.	.	.	.	.	.	.	.	.	.	.	.	.	.
4E-\	.	.	4E-/	.	8g/	.	16aa-X\LL	.	4G\	-se-	.	(4g\	-se-	.	4b-\	-se-	.	4ee-\	-se-	.	.	.	.	.	.	.	4G\	.	4ee-\	.	4gg\	.	4eee-\	.
.	.	.	.	.	.	.	16gg\	.	.	.	.	.	.	.	.	.	.	.	.	.	.	.	.	.	.	.	.	.	.	.	.	.	.	.
.	.	.	.	.	8B-/J	.	16ff\	.	.	.	.	.	.	.	.	.	.	.	.	.	.	.	.	.	.	.	.	.	.	.	.	.	.	.
.	.	.	.	.	.	.	16ee-\JJ	.	.	.	.	.	.	.	.	.	.	.	.	.	.	.	.	.	.	.	.	.	.	.	.	.	.	.
!	!	!	!	!	!	!	!	!	!	!	!	!	!	!	!	!	!	!	!	!	!	!	!	!	!	!	!LO:LB:g=original	!	!	!	!LO:LB:g=original	!	!	!
=32	=32	=32	=32	=32	=32	=32	=32	=32	=32	=32	=32	=32	=32	=32	=32	=32	=32	=32	=32	=32	=32	=32	=32	=32	=32	=32	=32	=32	=32	=32	=32	=32	=32	=32
!	!	!	!LO:SIC:s=4A-	!	!	!	!	!	!	!	!	!	!	!	!	!	!	!	!	!	!	!	!	!	!	!	!	!	!	!	!	!	!	!
4A-X\	.	.	4G-X/	.	8f/L	.	8cc\L	.	(4.A-X\	-re-	.	2a-\)	-re-	.	2cc\	-re-	.	2ff\	-re-	.	2.r	.	2.r	.	2.r	.	4A-X\	.	2ff\	.	2aa-\	.	2fff\	.
.	.	.	.	.	8A-/	.	16ddn\L	.	.	.	.	.	.	.	.	.	.	.	.	.	.	.	.	.	.	.	.	.	.	.	.	.	.	.
.	.	.	.	.	.	.	16een\JJ	.	.	.	.	.	.	.	.	.	.	.	.	.	.	.	.	.	.	.	.	.	.	.	.	.	.	.
4r	.	.	4r	.	8f/	.	16ff\LL	.	.	.	.	.	.	.	.	.	.	.	.	.	.	.	.	.	.	.	4r	.	.	.	.	.	.	.
.	.	.	.	.	.	.	16gg\	.	.	.	.	.	.	.	.	.	.	.	.	.	.	.	.	.	.	.	.	.	.	.	.	.	.	.
.	.	.	.	.	8A-/	.	16aa-X\	.	8F\)	.	.	.	.	.	.	.	.	.	.	.	.	.	.	.	.	.	.	.	.	.	.	.	.	.
.	.	.	.	.	.	.	16bb-\JJ	.	.	.	.	.	.	.	.	.	.	.	.	.	.	.	.	.	.	.	.	.	.	.	.	.	.	.
4r	.	.	4r	.	8f/	.	16ccc\LL	.	8A-\L	-re	.	4f\	-re	.	4a-X\	-re	.	4aa-\	-re	.	.	.	.	.	.	.	4An\	.	4aa-\	.	4ccc\	.	4ccc\	.
!	!	!	!	!	!	!	!LO:SIC:s=16dddn	!	!	!	!	!	!	!	!	!	!	!	!	!	!	!	!	!	!	!	!	!	!	!	!	!	!	!
.	.	.	.	.	.	.	16ddd-\	.	.	.	.	.	.	.	.	.	.	.	.	.	.	.	.	.	.	.	.	.	.	.	.	.	.	.
.	.	.	.	.	8A-/J	.	16eee-\	.	8An\J	.	.	.	.	.	.	.	.	.	.	.	.	.	.	.	.	.	.	.	.	.	.	.	.	.
.	.	.	.	.	.	.	16aan\JJ	.	.	.	.	.	.	.	.	.	.	.	.	.	.	.	.	.	.	.	.	.	.	.	.	.	.	.
*	*	*	*	*	*	*	*	*	*	*	*	*	*Xij	*	*	*Xij	*	*	*	*	*	*	*	*	*	*	*	*	*	*	*	*	*	*
!	!	!	!	!	!	!	!	!	!	!	!	!	!	!	!LO:LB:g=original	!	!	!	!	!	!	!	!	!	!	!	!	!	!	!	!	!	!	!
!	!	!	!	!	!	!	!LO:LB:g=original	!	!	!	!	!	!	!	!	!	!	!	!	!	!	!	!	!	!	!	!	!	!	!	!	!	!	!
=33	=33	=33	=33	=33	=33	=33	=33	=33	=33	=33	=33	=33	=33	=33	=33	=33	=33	=33	=33	=33	=33	=33	=33	=33	=33	=33	=33	=33	=33	=33	=33	=33	=33	=33
2B-\	.	.	2B-/	.	8r	.	8bb-\	.	(2B-\	no-	.	2e-\	no-	.	(2b-\	no-	.	(2gg\	no-	.	2.r	.	2.r	.	2.r	.	8B-\	.	2gg\	.	2bb-\	.	2bb-\	.
.	.	.	.	.	8B-/ 8gL	.	4bb-^\	.	.	.	.	.	.	.	.	.	.	.	.	.	.	.	.	.	.	.	4e-^\	.	.	.	.	.	.	.
.	.	.	.	.	8B-/ 8g	.	.	.	.	.	.	.	.	.	.	.	.	.	.	.	.	.	.	.	.	.	.	.	.	.	.	.	.	.
.	.	.	.	.	8B-/ 8gJ	.	16gg\LL	.	.	.	.	.	.	.	.	.	.	.	.	.	.	.	.	.	.	.	16B-\LL	.	.	.	.	.	.	.
.	.	.	.	.	.	.	16ee-\JJ	.	.	.	.	.	.	.	.	.	.	.	.	.	.	.	.	.	.	.	16G\JJ	.	.	.	.	.	.	.
!	!	!	!	!	!	!	!	!	!	!	!	!LO:SIC:s=4dn	!	!	!	!	!	!	!	!	!	!	!	!	!	!	!	!	!	!	!	!	!LO:SIC:s=4dddn	!
*	*	*	*	*	*Xtremolo	*	*	*	*	*	*	*	*	*	*	*	*	*	*	*	*	*	*	*	*	*	*	*	*	*	*	*	*	*
4BB-/	.	.	4b-\	.	8B-/L 8f	.	16ddn\LL	.	4A-X\)	.	.	4d-\	.	.	4b-\)	.	.	4ff\)	.	.	.	.	.	.	.	.	(16B-\LL	.	4a-/	.	4dd\	.	4ddd-\	.
.	.	.	.	.	.	.	16b-\	.	.	.	.	.	.	.	.	.	.	.	.	.	.	.	.	.	.	.	16A-\	.	.	.	.	.	.	.
.	.	.	.	.	8B-/J 8f	.	16a-X\	.	.	.	.	.	.	.	.	.	.	.	.	.	.	.	.	.	.	.	16F\	.	.	.	.	.	.	.
!	!	!	!	!	!	!	!	!	!	!	!	!	!	!	!	!	!	!	!	!	!	!	!	!	!	!	!LO:SIC:s=16Dn	!	!	!	!	!	!	!
.	.	.	.	.	.	.	16f\JJ	.	.	.	.	.	.	.	.	.	.	.	.	.	.	.	.	.	.	.	16D-\JJ)	.	.	.	.	.	.	.
=34	=34	=34	=34	=34	=34	=34	=34	=34	=34	=34	=34	=34	=34	=34	=34	=34	=34	=34	=34	=34	=34	=34	=34	=34	=34	=34	=34	=34	=34	=34	=34	=34	=34	=34
!	!	!	!	!	!	!	!	!LO:DY:b	!	!	!	!	!	!	!	!	!	!	!	!	!	!	!	!	!	!	!	!	!	!	!	!	!	!
4E-\	.	.	4e-\	.	8B-/L 8g	p	8e-/L	p	4G\	-bis	.	4e-\	-bis	.	4b-\	-bis	.	4ee-\	-bis	.	2.r	.	2.r	.	2.r	.	(8E-\L	.	4g/	.	4ee-\	.	4eee-\	.
.	.	.	.	.	(8e-/	.	8gg\	.	.	.	.	.	.	.	.	.	.	.	.	.	.	.	.	.	.	.	8C\	.	.	.	.	.	.	.
!	!	!	!	!	!	!	!	!	!	!	!	!	!	!	!	!	!	!	!	!	!	!	!	!	!	!	!LO:SIC:s=8Dn	!	!	!	!	!	!	!
4r	.	.	4r	.	8dn/	.	8ff\	.	4r	.	.	4r	.	.	4r	.	.	4r	.	.	.	.	.	.	.	.	8D-\	.	4r	.	4r	.	4r	.
.	.	.	.	.	8c/	.	8ee-\	.	.	.	.	.	.	.	.	.	.	.	.	.	.	.	.	.	.	.	8E-\	.	.	.	.	.	.	.
4r	.	.	4r	.	8Bn/	.	8ddn\	.	4r	.	.	4r	.	.	4r	.	.	4r	.	.	.	.	.	.	.	.	8F\)	.	4r	.	4r	.	4r	.
.	.	.	.	.	8A-/J)	.	8cc\J	.	.	.	.	.	.	.	.	.	.	.	.	.	.	.	.	.	.	.	8G-X\J	.	.	.	.	.	.	.
=35	=35	=35	=35	=35	=35	=35	=35	=35	=35	=35	=35	=35	=35	=35	=35	=35	=35	=35	=35	=35	=35	=35	=35	=35	=35	=35	=35	=35	=35	=35	=35	=35	=35	=35
!LO:TX:a:t=1	!	!	!LO:TX:a:t=1	!	!	!	!	!	!LO:TX:a:t=2	!	!	!LO:TX:a:t=2	!	!	!LO:TX:a:t=2	!	!	!LO:TX:a:t=2	!	!	!	!	!	!	!	!	!	!	!LO:TX:a:t=2	!	!LO:TX:a:t=2	!	!LO:TX:a:t=2	!
2.r	.	.	2.r	.	8G/L	.	8bn/L	.	2.r	.	.	2.r	.	.	2.r	.	.	2.r	.	.	2.r	.	2.r	.	2.r	.	8Gn\L	.	2.r	.	2.r	.	2.r	.
.	.	.	.	.	(8f/	.	8a-X/	.	.	.	.	.	.	.	.	.	.	.	.	.	.	.	.	.	.	.	(8A-\	.	.	.	.	.	.	.
.	.	.	.	.	8e-/	.	8g/	.	.	.	.	.	.	.	.	.	.	.	.	.	.	.	.	.	.	.	8An\	.	.	.	.	.	.	.
.	.	.	.	.	8dn/	.	8f/	.	.	.	.	.	.	.	.	.	.	.	.	.	.	.	.	.	.	.	8Bn\	.	.	.	.	.	.	.
.	.	.	.	.	8c/)	.	8e-/	.	.	.	.	.	.	.	.	.	.	.	.	.	.	.	.	.	.	.	8c\)	.	.	.	.	.	.	.
.	.	.	.	.	8Bn/J	.	8dn/J	.	.	.	.	.	.	.	.	.	.	.	.	.	.	.	.	.	.	.	8dn\J	.	.	.	.	.	.	.
!	!	!	!LO:LB:g=original	!	!	!	!	!	!	!	!	!	!	!	!	!	!	!	!	!	!	!	!	!	!	!	!	!	!	!	!	!	!	!
=36	=36	=36	=36	=36	=36	=36	=36	=36	=36	=36	=36	=36	=36	=36	=36	=36	=36	=36	=36	=36	=36	=36	=36	=36	=36	=36	=36	=36	=36	=36	=36	=36	=36	=36
8c\	.	.	8c\	.	8c/	.	8c/	.	2.r	.	.	2.r	.	.	2.r	.	.	2.r	.	.	2.r	.	2.r	.	2.r	.	4e-\	.	2.r	.	2.r	.	2.r	.
8r	.	.	8r	.	16.r	.	16.r	.	.	.	.	.	.	.	.	.	.	.	.	.	.	.	.	.	.	.	.	.	.	.	.	.	.	.
.	.	.	.	.	32g/	.	32cc\	.	.	.	.	.	.	.	.	.	.	.	.	.	.	.	.	.	.	.	.	.	.	.	.	.	.	.
8F\	6	.	8F/	.	8a-X/	.	8ddn\	.	.	.	.	.	.	.	.	.	.	.	.	.	.	.	.	.	.	.	8f\L	.	.	.	.	.	.	.
8r	.	.	8r	.	8r	.	8r	.	.	.	.	.	.	.	.	.	.	.	.	.	.	.	.	.	.	.	16e-\L	.	.	.	.	.	.	.
.	.	.	.	.	.	.	.	.	.	.	.	.	.	.	.	.	.	.	.	.	.	.	.	.	.	.	16c\JJ	.	.	.	.	.	.	.
8G\	5 n3	.	8G/	.	8dn/ 8f	.	8bn\	.	.	.	.	.	.	.	.	.	.	.	.	.	.	.	.	.	.	.	8Bn\L	.	.	.	.	.	.	.
!	!	!	!	!	!	!	!	!	!	!	!	!	!	!	!	!	!	!	!	!	!	!	!	!	!	!	!LO:SIC:s=8dn	!	!	!	!	!	!	!
8r	.	.	8r	.	8r	.	8r	.	.	.	.	.	.	.	.	.	.	.	.	.	.	.	.	.	.	.	8d-\J	.	.	.	.	.	.	.
!	!	!	!	!	!	!	!	!	!	!	!	!	!	!	!	!	!	!LO:LB:g=original	!	!	!	!	!	!	!	!	!	!	!	!	!	!	!	!
=37	=37	=37	=37	=37	=37	=37	=37	=37	=37	=37	=37	=37	=37	=37	=37	=37	=37	=37	=37	=37	=37	=37	=37	=37	=37	=37	=37	=37	=37	=37	=37	=37	=37	=37
!	!	!	!LO:SIC:s=8.g	!	!	!	!	!	!	!	!	!LO:TX:a:i:t=Tutti	!	!	!	!	!	!	!	!	!	!	!	!	!	!	!	!	!	!	!	!	!	!
!	!	!LO:DY:b	!	!	!	!LO:DY:b	!	!LO:DY:b	!	!	!LO:DY:b	!	!	!	!	!	!	!	!	!	!	!	!	!	!	!	!	!	!	!	!	!	!	!
8.C/L	.	f	8.f#X\L	.	4e-/	f	4cc\	f	4C\	A-	ff	2e-\	A-	.	2g\	A-	.	2cc\	A-	.	2.r	.	2.r	.	2.r	.	4c\	.	4g/	.	4cc\	.	2eee-\	ff
!	!	!	!LO:SIC:s=16f	!	!	!	!	!	!	!	!	!	!	!	!	!	!	!	!	!	!	!	!	!	!	!	!	!	!	!	!	!	!	!
16BBn/K	.	.	16e-\K	.	.	.	.	.	.	.	.	.	.	.	.	.	.	.	.	.	.	.	.	.	.	.	.	.	.	.	.	.	.	.
!	!	!	!LO:SIC:s=8.e-	!	!	!	!	!	!	!	!	!	!	!	!	!	!	!	!	!	!	!	!	!	!	!	!	!	!	!	!	!	!	!
8.C/	.	.	8.dn\	.	4e-/	.	4cc\	.	4E-\	.	.	.	.	.	.	.	.	.	.	.	.	.	.	.	.	.	8.C/L	.	4g/	.	4cc\	.	.	.
!LO:SIC:s=16Dn	!	!	!LO:SIC:s=16dn	!	!	!	!	!	!	!	!	!	!	!	!	!	!	!	!	!	!	!	!	!	!	!	!LO:SIC:s=16Dn	!	!	!	!	!	!	!
16D-/K	.	.	16c\K	.	.	.	.	.	.	.	.	.	.	.	.	.	.	.	.	.	.	.	.	.	.	.	16D-/K	.	.	.	.	.	.	.
!	!	!	!LO:SIC:s=8.c-	!	!	!	!	!	!	!	!	!	!	!	!	!	!	!	!	!	!	!	!	!	!	!	!	!	!	!	!	!	!	!
8.E-/	.	.	8.Bn\	.	4e-/	.	4cc\	.	4C\	-gnus	.	4e-\	-gnus	.	4g\	-gnus	.	4cc\	-gnus	.	.	.	.	.	.	.	8.E-/	.	4g/	.	4cc\	.	4eee-\	.
!	!	!	!LO:SIC:s=16dn	!	!	!	!	!	!	!	!	!	!	!	!	!	!	!	!	!	!	!	!	!	!	!	!	!	!	!	!	!	!	!
16F#X/Jk	.	.	16c\Jk	.	.	.	.	.	.	.	.	.	.	.	.	.	.	.	.	.	.	.	.	.	.	.	16F#X/Jk	.	.	.	.	.	.	.
!LO:LB:g=original	!	!	!	!	!	!	!	!	!	!	!	!	!	!	!	!	!	!	!	!	!	!	!	!	!	!	!	!	!	!	!	!	!	!
=38	=38	=38	=38	=38	=38	=38	=38	=38	=38	=38	=38	=38	=38	=38	=38	=38	=38	=38	=38	=38	=38	=38	=38	=38	=38	=38	=38	=38	=38	=38	=38	=38	=38	=38
4G\	6 4	.	4g\	.	4e-/	.	4cc\	.	4G\	De-	.	4e-\	De-	.	4g\	De-	.	4cc\	De-	.	2.r	.	2.r	.	2.r	.	4G\	.	4g/	.	4cc\	.	4eee-\	.
!	!	!	!	!	!	!	!	!	!	!	!	!LO:SIC:s=4d	!	!	!	!	!	!	!	!	!	!	!	!	!	!	!	!	!	!	!	!	!	!
4GG/	5 n3	.	4G/	.	4d-/	.	4bn\	.	4GG/	-i	.	4d-\	-i	.	4g\	-i	.	4bn\	-i	.	.	.	.	.	.	.	8r	.	4g/	.	4bX\	.	4ddd-\	.
.	.	.	.	.	.	.	.	.	.	.	.	.	.	.	.	.	.	.	.	.	.	.	.	.	.	.	8G\L	.	.	.	.	.	.	.
4r	.	.	4r	.	4r	.	4r	.	4r	.	.	4r	.	.	4r	.	.	4r	.	.	.	.	.	.	.	.	8Bn\	.	4r	.	4r	.	4r	.
!	!	!	!	!	!	!	!	!	!	!	!	!	!	!	!	!	!	!	!	!	!	!	!	!	!	!	!LO:SIC:s=8dn	!	!	!	!	!	!	!
.	.	.	.	.	.	.	.	.	.	.	.	.	.	.	.	.	.	.	.	.	.	.	.	.	.	.	8d-\J	.	.	.	.	.	.	.
!	!	!	!	!	!	!	!	!	!LO:LB:g=original	!	!	!	!	!	!	!	!	!	!	!	!	!	!	!	!	!	!	!	!	!	!	!	!	!
!	!	!	!	!	!LO:LB:g=original	!	!	!	!	!	!	!	!	!	!	!	!	!	!	!	!	!	!	!	!	!LO:LB:g=original	!	!	!	!	!	!	!	!
=39	=39	=39	=39	=39	=39	=39	=39	=39	=39	=39	=39	=39	=39	=39	=39	=39	=39	=39	=39	=39	=39	=39	=39	=39	=39	=39	=39	=39	=39	=39	=39	=39	=39	=39
8.G\L	x 5_ 3_	.	8.g\L	.	4g/	.	4ddn\	.	8G\	qui	.	8f\	qui	.	8bn\	qui	.	8ddn\	qui	.	2.r	.	2.r	.	2.r	.	4f\	.	4bX\	.	4dd\	.	4fff\	.
!	!	!	!	!	!	!	!	!	!	!	!	!	!	!	!	!	!	!LO:SIC:s=tol-	!	!	!	!	!	!	!	!	!	!	!	!	!	!	!	!
.	.	.	.	.	.	.	.	.	8G\	tol-	.	8f\	tol-	.	8b\	tol-	.	8dd\	to-	.	.	.	.	.	.	.	.	.	.	.	.	.	.	.
16F#X\K	.	.	16bn\K	.	.	.	.	.	.	.	.	.	.	.	.	.	.	.	.	.	.	.	.	.	.	.	.	.	.	.	.	.	.	.
!	!	!	!	!	!	!	!	!	!	!	!	!LO:SIC:s=-lis	!	!	!	!	!	!LO:SIC:s=-lis	!	!	!	!	!	!	!	!	!	!	!	!	!	!	!	!
8.G\	7_ 5_ 3_	.	8.an\	.	4g/	.	4dd\	.	8Bn\	-is	.	8f\	-is	.	8b\	-lis	.	8dd\	-tis	.	.	.	.	.	.	.	8r	.	4dd\	.	4ff\	.	4fff\	.
!	!	!	!	!	!	!	!	!	!	!	!	!LO:LB:g=original	!	!	!	!	!	!	!	!	!	!	!	!	!	!	!	!	!	!	!	!	!	!
.	.	.	.	.	.	.	.	.	8B\	pec-	.	8f\	pec-	.	8b\	pec-	.	8dd\	pec-	.	.	.	.	.	.	.	8G\	.	.	.	.	.	.	.
16An\K	.	.	16g\K	.	.	.	.	.	.	.	.	.	.	.	.	.	.	.	.	.	.	.	.	.	.	.	.	.	.	.	.	.	.	.
8.Bn\	.	.	8.f#X\	.	4g/	.	4dd\	.	8G\	-ca-	.	8f\	-ca-	.	8b\	-ca-	.	8dd\	-ca-	.	.	.	.	.	.	.	8Bn\L	.	4dd\	.	4ff\	.	4fff\	.
.	.	.	.	.	.	.	.	.	8G\	-ta	.	8f\	-ta	.	8b\	-ta	.	8dd\	-ta	.	.	.	.	.	.	.	8G\J	.	.	.	.	.	.	.
16G\Jk	.	.	16g\Jk	.	.	.	.	.	.	.	.	.	.	.	.	.	.	.	.	.	.	.	.	.	.	.	.	.	.	.	.	.	.	.
=40	=40	=40	=40	=40	=40	=40	=40	=40	=40	=40	=40	=40	=40	=40	=40	=40	=40	=40	=40	=40	=40	=40	=40	=40	=40	=40	=40	=40	=40	=40	=40	=40	=40	=40
!	!	!	!	!	!	!	!LO:SIC:s=4ddn	!	!	!	!	!	!	!	!	!	!	!LO:SIC:s=4ddn	!	!	!	!	!	!	!	!	!	!	!LO:SIC:s=4dn	!	!	!	!	!
4c\	4 2	.	4c\	.	4g/	.	4dd-\	.	4c\	mun-	.	4f\	mun-	.	4g\	mun-	.	4dd-\	mun-	.	2.r	.	2.r	.	2.r	.	4c\	.	4dd-\	.	4ff\	.	4fff\	.
4C/	3	.	4cc\	.	4e-/	.	4cc\	.	4C/	-di	.	4e-\	-di	.	4g\	-di	.	4cc\	-di	.	.	.	.	.	.	.	8r	.	4cc\	.	4ee-\	.	4eee-\	.
.	.	.	.	.	.	.	.	.	.	.	.	.	.	.	.	.	.	.	.	.	.	.	.	.	.	.	8G\L	.	.	.	.	.	.	.
4r	.	.	4r	.	4r	.	4r	.	4r	.	.	4r	.	.	4r	.	.	4r	.	.	.	.	.	.	.	.	8c\	.	4r	.	4r	.	4r	.
.	.	.	.	.	.	.	.	.	.	.	.	.	.	.	.	.	.	.	.	.	.	.	.	.	.	.	8e-\J	.	.	.	.	.	.	.
*clefC4	*	*	*	*	*	*	*	*	*	*	*	*	*	*	*	*	*	*	*	*	*	*	*	*	*	*	*	*	*	*	*	*	*	*
!	!	!	!	!	!	!	!LO:LB:g=original	!	!	!	!	!	!	!	!	!	!	!	!	!	!	!	!	!	!	!	!	!	!	!	!	!	!	!
!	!	!	!	!	!	!	!	!	!	!	!	!	!	!	!	!	!	!	!	!	!	!	!	!	!	!	!	!	!LO:LB:g=original	!	!	!	!	!
=41	=41	=41	=41	=41	=41	=41	=41	=41	=41	=41	=41	=41	=41	=41	=41	=41	=41	=41	=41	=41	=41	=41	=41	=41	=41	=41	=41	=41	=41	=41	=41	=41	=41	=41
!	!	!LO:DY:b	!	!	!	!	!	!	!	!	!	!	!	!	!	!	!	!	!	!	!	!	!	!	!	!	!	!	!	!	!	!	!	!
4r	.	p	4r	.	4r	.	4r	.	4r	.	.	4r	.	.	4r	.	.	(4gg\	A-	.	2.r	.	2.r	.	2.r	.	4G\ 4g	.	4r	.	4r	.	4r	.
!LO:SIC:s=4dn	!	!	!LO:SIC:s=4dn	!	!	!	!	!	!	!	!	!	!	!	!	!	!	!	!	!	!	!	!	!	!	!	!	!	!	!	!	!	!	!
4d-\	-5_ 3_	.	4d-\	.	4f/	.	4a-X/	.	4G\	mi-	.	4dn\	Mi-	.	4f\	mi-	.	4bn\)	.	.	.	.	.	.	.	.	4G\	.	4ff\	.	4aa-X\	.	4fff\	.
!LO:SIC:s=4dn	!	!	!	!	!	!	!	!	!	!	!	!	!	!	!	!	!	!	!	!	!	!	!	!	!	!	!	!	!	!	!	!	!	!
4d-\	.	.	4bn\	.	4f/	.	4a-/	.	4Bn\	-se-	.	4d\	-se-	.	4f\	-se-	.	4b\	-gnus	.	.	.	.	.	.	.	4Bn\	.	4ff\	.	4aa-\	.	4fff\	.
!	!	!	!	!	!	!	!	!	!	!	!	!	!	!	!LO:LB:g=original	!	!	!	!	!	!	!	!	!	!	!	!	!	!	!	!	!	!LO:LB:g=original	!
=42	=42	=42	=42	=42	=42	=42	=42	=42	=42	=42	=42	=42	=42	=42	=42	=42	=42	=42	=42	=42	=42	=42	=42	=42	=42	=42	=42	=42	=42	=42	=42	=42	=42	=42
!	!	!	!LO:TX:t=P:problem=brak taktu	!	!	!	!	!	!	!	!	!	!	!	!	!	!	!	!	!	!	!	!	!	!	!	!	!	! 	!	!	!	!	!
4e-\	6 3	.	2.ryy	.	8.e-/L	.	8.g/L	.	4c\	-re-	.	(8.e-\L	-re-	.	8.g\L	-re-	.	(8.cc\L	De-	.	2.r	.	2.r	.	2.r	.	4c\	.	8.ee-\L	.	8.gg\L	.	8.eee-\L	.
!	!	!	!	!	!	!	!	!	!	!	!	!LO:SIC:s=16dn	!	!	! 	!	!	!	!	!	!	!	!	!	!	!	!	!	! 	!	!	!	!LO:SIC:s=16dddn	!
.	.	.	.	.	16dn/Jk	.	16f/Jk	.	.	.	.	16d-\Jk	.	.	16f\Jk	.	.	16ddn\Jk)	.	.	.	.	.	.	.	.	.	.	16dd\Jk	.	16ff\Jk	.	16ddd-\Jk	.
4r	.	.	.	.	4c/	.	4e-/	.	4C/	-re	.	4c\)	-re	.	4e-\	-re	.	4ee-\	-i	.	.	.	.	.	.	.	8r	.	4cc\	.	4ee-\	.	4ccc\	.
.	.	.	.	.	.	.	.	.	.	.	.	.	.	.	.	.	.	.	.	.	.	.	.	.	.	.	8An\L	.	.	.	.	.	.	.
4r	.	.	.	.	4r	.	4r	.	4r	.	.	4r	.	.	4r	.	.	4r	.	.	.	.	.	.	.	.	8c\	.	4r	.	4r	.	4r	.
.	.	.	.	.	.	.	.	.	.	.	.	.	.	.	.	.	.	.	.	.	.	.	.	.	.	.	8e-\J	.	.	.	.	.	.	.
=43	=43	=43	=43	=43	=43	=43	=43	=43	=43||	=43	=43	=43	=43	=43	=43	=43	=43	=43	=43	=43	=43	=43	=43	=43	=43	=43	=43	=43	=43	=43	=43	=43	=43	=43
*	*	*	*	*	*	*	*	*	*k[b-e-]	*	*	*	*ij	*	*	*	*	*	*	*	*	*	*	*	*	*	*	*	*	*	*	*	*	*
4r	.	.	4r	.	4r	.	4r	.	4r	.	.	4r	.	.	4r	.	.	8gg-X\	qui	.	2.r	.	2.r	.	2.r	.	4g-X\	.	4r	.	4r	.	4r	.
.	.	.	.	.	.	.	.	.	.	.	.	.	.	.	.	.	.	8an\	tol-	.	.	.	.	.	.	.	.	.	.	.	.	.	.	.
!	!	!	!	!	!	!	!	!	!	!	!	!	!	!	!	!	!	!LO:SIC:s=-lis	!	!	!	!	!	!	!	!	!	!	!	!	!	!	!	!
4c\	-5_ -3_	.	4c\	.	4e-/	.	4g-X/	.	4F\	mi-	.	4e-\	Mi-	.	4f\	mi-	.	8a\	-is	.	.	.	.	.	.	.	4F\	.	4ee-\	.	4gg-X\	.	4eee-\	.
.	.	.	.	.	.	.	.	.	.	.	.	.	.	.	.	.	.	8a\	pec-	.	.	.	.	.	.	.	.	.	.	.	.	.	.	.
!	!	!	!	!	!	!	!	!	!	!	!	!	!	!	!	!	!	!	!	!	!	!	!	!	!	!	!LO:SIC:s=4An	!	!	!	!	!	!	!
4c\	.	.	4c\	.	4e-/	.	4g-/	.	4A\	-se-	.	4e-\	-se-	.	4f\	-se-	.	8a\	-ca-	.	.	.	.	.	.	.	4A-\	.	4ee-\	.	4gg-\	.	4eee-\	.
.	.	.	.	.	.	.	.	.	.	.	.	.	.	.	.	.	.	8a\	-ta	.	.	.	.	.	.	.	.	.	.	.	.	.	.	.
!	!	!	!	!	!	!	!	!	!	!	!	!	!	!	!	!	!	!LO:LB:g=original	!	!	!	!	!	!	!	!	!	!	!	!	!	!	!	!
=44	=44	=44	=44	=44	=44	=44	=44	=44	=44	=44	=44	=44	=44	=44	=44	=44	=44	=44	=44	=44	=44	=44	=44	=44	=44	=44	=44	=44	=44	=44	=44	=44	=44	=44
!	!	!	!	!	!	!	!	!	!	!	!	!LO:SIC:s=8.dn	!	!	!	!	!	!	!	!	!	!	!	!	!	!	!	!	!LO:SIC:s=8.ddn	!	!	!	!LO:SIC:s=8.dddn	!
4d-\	.	.	4B-/	.	8.dn/L	.	8.f/L	.	4B-\	-re-	.	8.d-\L	-re-	.	(8.f\L	-re-	.	(8.b-X\L	mun-	.	2.r	.	2.r	.	2.r	.	4B-\	.	8.dd-\L	.	8.ff\L	.	8.ddd-\L	.
.	.	.	.	.	16c/Jk	.	16e-/Jk	.	.	.	.	16c\Jk	.	.	16e-\Jk)	.	.	16cc\Jk)	.	.	.	.	.	.	.	.	.	.	16cc\Jk	.	16ee-\Jk	.	16ccc\Jk	.
4r	.	.	4b-\	.	4B-/	.	4dn/	.	4BB-/	-re	.	4B-\	-re	.	4dn\	-re	.	4ddn\	-di	.	.	.	.	.	.	.	4BB-/	.	4b-\	.	4dd\	.	4bb-\	.
!	!	!	!	!	!	!	!	!	!	!	!	!LO:TX:t=P:problem=brak zmiany tonacji	!	!	!	!	!	!	!	!	!	!	!	!	!	!	!	!	!	!	!	!	!	!
4r	.	.	4r	.	4r	.	4r	.	4r	.	.	4r	.	.	4r	.	.	4r	.	.	.	.	.	.	.	.	4r	.	4r	.	4r	.	4r	.
*clefF4	*	*	*	*	*	*	*	*	*	*	*	*	*	*	*	*	*	*	*	*	*	*	*	*	*	*	*	*	*	*	*	*	*	*
!	!	!	!	!	!	!	!	!	!	!	!	!	!	!	!	!	!	!	!	!	!	!	!	!	!	!	!	!	!	!	!LO:LB:g=original	!	!	!
=45||	=45||	=45||	=45||	=45||	=45||	=45||	=45||	=45||	=45	=45||	=45||	=45||	=45||	=45||	=45||	=45||	=45||	=45||	=45||	=45||	=45||	=45||	=45||	=45||	=45||	=45||	=45||	=45||	=45||	=45||	=45||	=45||	=45||	=45||
*k[b-e-]	*	*	*k[b-e-]	*	*k[b-e-]	*	*k[b-e-]	*	*	*	*	*k[b-e-a-d-]	*	*	*k[b-e-]	*	*	*k[b-e-]	*	*	*	*	*	*	*	*	*k[b-e-]	*	*k[b-e-]	*	*k[b-e-]	*	*k[b-e-]	*
*B-:	*	*	*B-:	*	*B-:	*	*B-:	*	*	*	*	*	*	*	*B-:	*	*	*B-:	*	*	*	*	*	*	*	*	*B-:	*	*B-:	*	*B-:	*	*B-:	*
4r	.	.	4r	.	4r	.	4r	.	4r	.	.	4r	.	.	4r	.	.	(8.ee-\L	Mi-	.	4r	f	4r	f	4r	f	4r	.	4r	.	4r	.	4r	.
.	.	.	.	.	.	.	.	.	.	.	.	.	.	.	.	.	.	16cc\Jk)	.	.	.	.	.	.	.	.	.	.	.	.	.	.	.	.
!	!	!	!	!	! 	!	!	!	!	!	!	!LO:SIC:s=8.An	!	!	!	!	!	!	!	!	!LO:TX:a:t=g	!	!	!	! 	!	!	!	!	!	!	!	!	!
4F\	5_ 3_	.	4a\	.	4cc\	.	4ee-\	.	4c\	Mi-	.	8.A-\L	Mi-	.	4f\	mi-	.	4a\	-se-	.	4FF/ 4AA	.	4f/	.	4cc\	.	4A\	.	4a\	.	8.cc\L	.	8.ccc\L	.
.	.	.	.	.	.	.	.	.	.	.	.	16c\Jk	.	.	.	.	.	.	.	.	.	.	.	.	.	.	.	.	.	.	16a\Jk	.	16aa\Jk	.
!	!	!	!	!	!	!	!	!	!	!	!	!	!	!	!	!	!	!	!	!	!LO:TX:a:t=g	!	!	!	!	!	!	!	!	!	!	!	!	!
4F\	.	.	4f\	.	4cc\	.	4ee-\	.	4c\	-se-	.	4e-\	-se-	.	4f\	-se-	.	4r	.	.	4FF/ 4AA	.	4f/	.	4cc\	.	4c\	.	4cc\	.	4ee-\	.	4eee-\	.
!	!	!	!	!	!	!	!	!	!LO:LB:g=original	!	!	!LO:LB:g=original	!	!	!	!	!	!	!	!	!	!	!	!	!	!	!	!	!	!	!	!	!	!
=46	=46	=46	=46	=46	=46	=46	=46	=46	=46	=46	=46	=46	=46	=46	=46	=46	=46	=46	=46	=46	=46	=46	=46	=46	=46	=46	=46	=46	=46	=46	=46	=46	=46	=46
4r	.	.	4r	.	4r	.	4r	.	4r	.	.	4r	.	.	4r	.	.	(8.ff\L	-re-	.	4r	.	4r	.	4r	.	4r	.	4r	.	4r	.	4r	.
.	.	.	.	.	.	.	.	.	.	.	.	.	.	.	.	.	.	16dd\Jk)	.	.	.	.	.	.	.	.	.	.	.	.	.	.	.	.
4B-\	3_	.	4B-/	.	4b-\	.	4ddn\	.	4d\	-re-	.	8.B-\L	-re-	.	4d\	-re-	.	4b-\	.	.	4BB-/	.	4d/	.	4b-\	.	4B-\	.	4b-\	.	8.dd\L	.	8.ddd\L	.
!	!	!	!	!	!	!	!	!	!	!	!	!LO:SIC:s=16dn	!	!	!	!	!	!	!	!	!	!	!	!	!	!	!	!	!	!	!	!	!	!
.	.	.	.	.	.	.	.	.	.	.	.	16d-\Jk	.	.	.	.	.	.	.	.	.	.	.	.	.	.	.	.	.	.	16b-\Jk	.	16bb-\Jk	.
!	!	!	!	!	!LO:SIC:s=4b-	!	!	!	!	!	!	!	!	!	!	!	!	!	!	!	!	!	!	!	!	!	!	!	!	!	!	!	!	!
4B-\	.	.	4d/	.	4bn\	.	4dd\	.	4d\	-re	.	4f\	-re	.	4d\	-re	.	4bn\	-re	.	4BB-/	.	4d/	.	4b-\	.	4d\	.	4dd\	.	4ff\	.	4fff\	.
*	*	*	*	*	*	*	*	*	*	*	*	*	*Xij	*	*	*	*	*	*	*	*	*	*	*	*	*	*	*	*	*	*	*	*	*
!	!	!	!	!	!LO:LB:g=original	!	!	!	!	!	!	!	!	!	!	!	!	!	!	!	!	!	!	!	!	!	!	!	!	!	!	!	!	!
=47	=47	=47	=47	=47	=47	=47	=47	=47	=47	=47	=47	=47	=47	=47	=47	=47	=47	=47	=47	=47	=47	=47	=47	=47	=47	=47	=47	=47	=47	=47	=47	=47	=47	=47
4E-\	6 3	.	4e-\	.	4e-/	.	(4cc\	.	(4e-\	no-	.	(4e-\	no-	.	(4g\	no-	.	(16cc\LL	no-	.	4r	.	4r	.	4r	.	8e-\L	.	4cc\	.	4ee-\	.	4eee-\	.
.	.	.	.	.	.	.	.	.	.	.	.	.	.	.	.	.	.	16dd\	.	.	.	.	.	.	.	.	.	.	.	.	.	.	.	.
.	.	.	.	.	.	.	.	.	.	.	.	.	.	.	.	.	.	16ee-\	.	.	.	.	.	.	.	.	8en\	.	.	.	.	.	.	.
.	.	.	.	.	.	.	.	.	.	.	.	.	.	.	.	.	.	16gg\JJ)	.	.	.	.	.	.	.	.	.	.	.	.	.	.	.	.
!	!	!	!	!	!	!	!	!	!	!	!	!LO:SIC:s=4dn	!	!	!	!	!	!	!	!	!	!	!	!	!	!	!	!	!	!	!	!	!	!
4F\	6 4	.	4f\	.	4d/	.	4b-\	.	2f\)	.	.	4d-\	.	.	4f\)	.	.	4b-X\	.	.	4FF/	.	4f/	.	4cc\	.	8f\	.	4b-\	.	4dd\	.	4ddd\	.
.	.	.	.	.	.	.	.	.	.	.	.	.	.	.	.	.	.	.	.	.	.	.	.	.	.	.	8F\J	.	.	.	.	.	.	.
4FF/	5 3	.	4g\	.	4c/	.	4an\)	.	.	.	.	4c\)	.	.	4e-\	.	.	8ddn\L	.	.	4FF/	.	4f/	.	4cc\	.	8A\L	.	4a\	.	4cc\	.	4ccc\	.
.	.	.	.	.	.	.	.	.	.	.	.	.	.	.	.	.	.	8cc\J	.	.	.	.	.	.	.	.	8F\J	.	.	.	.	.	.	.
!LO:LB:g=original	!	!	!	!	!	!	!	!	!	!	!	!	!	!	!	!	!	!	!	!	!	!	!	!	!	!	!	!	!	!	!	!	!	!
=48	=48	=48	=48	=48	=48	=48	=48	=48	=48	=48	=48	=48	=48	=48	=48	=48	=48	=48	=48	=48	=48	=48	=48	=48	=48	=48	=48	=48	=48	=48	=48	=48	=48	=48
!	!	!	!	!	!	!	!	!	!	!	!	!LO:SIC:s=4dn	!	!	!	!	!	!	!	!	!	!	!	!	!	!	!	!	!	!	!	!	!	!
!	!	!	!	!	!	!	!	!	!	!	!	!	!	!	!	!	!	!	!	!LO:DY:b	!	!	!	!	!	!	!	!	!	!	!	!	!	!
4BB-/	.	.	4b-\	.	4d/	.	4b-\	.	4B-\	-bis	.	4d-\	-bis	.	4d\	-bis	.	4b-\	-bis	p	4BB-/	.	4d/	.	4b-\	.	4B-\	p	4b-\	.	4dd\	.	4ddd\	p
!	!	!	!	!	!	!	!	!	!	!	!	!	!	!	!	!	!LO:DY:b	!	!	!	!	!	!	!	!	!	!	!	!	!	!	!	!	!
!	!	!	!	!	!	!	!	!	!	!	!	!	!	!LO:DY:b	!	!	!	!	!	!	!	!	!	!	!	!	!	!	!	!	!	!	!	!
4r	.	.	4r	.	4r	.	4r	.	4B-\	Do-	p	4f\	Do-	p	4dd\	Do-	p	4ff\	Do-	.	4r	.	4r	.	4r	.	4B-\	.	4dd\	p	4ff\	p	4fff\	.
4r	.	.	4r	.	4r	.	4r	.	4B-\	-na	.	4f\	-na	.	4dd\	-na	.	4ff\	-na	.	4r	.	4r	.	4r	.	4B-\	.	4dd\	.	4ff\	.	4fff\	.
!	!	!	!	!	!	!	!	!	!	!	!	!	!	!	!LO:LB:g=original	!	!	!	!	!	!	!	!	!	!	!LO:LB:g=original	!	!	!	!	!	!	!	!
=49	=49	=49	=49	=49	=49	=49	=49	=49	=49	=49	=49	=49	=49	=49	=49	=49	=49	=49	=49	=49	=49	=49	=49	=49	=49	=49	=49	=49	=49	=49	=49	=49	=49	=49
!	!	!	!LO:TX:a:t=1	!	!	!	!	!	!	!	!	!	!	!	!	!	!	!	!	!	!LO:TX:a:t=9	!	!LO:TX:a:t=9	!	!LO:TX:a:t=9	!	! 	!	!	!	!	!	!	!
2.r	.	.	2.r	.	2.r	.	2.r	.	(2B-\	no-	.	(2f\	no-	.	(2dd\	no-	.	2ff\	no-	.	2.r	.	2.r	.	2.r	.	2B-\	.	2dd\	.	2ff\	.	2fff\	.
.	.	.	.	.	.	.	.	.	4A\	.	.	4f#X\)	.	.	4cc\)	.	.	4ee-\	.	.	.	.	.	.	.	.	4F#X\	.	4cc\	.	4ee-\	.	4eee-\	.
!	!	!	!LO:LB:g=original	!	!	!	!	!	!	!	!	!	!	!	!	!	!	!	!	!	!	!	!	!	!	!	!	!	!	!	!	!	!	!
=50	=50	=50	=50	=50	=50	=50	=50	=50	=50	=50	=50	=50	=50	=50	=50	=50	=50	=50	=50	=50	=50	=50	=50	=50	=50	=50	=50	=50	=50	=50	=50	=50	=50	=50
!	!	!LO:DY:b	!	!	!	!LO:DY:b	!	!LO:DY:b	!	!	!	!	!	!	!	!	!	!	!	!	!	!	!	!	!	!	!	!	!	!	!	!	!	!
4r	.	ff	4g\	.	4r	ff	4r	ff	4B-\)	-bis	.	4g\	-bis	.	4b-\	-bis	.	4dd\	-bis	.	2.r	.	2.r	.	2.r	.	4G\	.	4b-\	.	4dd\	.	4ddd\	.
4F'\	.	.	4r	.	4f/	.	4f/	.	4r	.	.	4r	.	.	4r	.	.	4r	.	.	.	.	.	.	.	.	4r	.	4r	.	4r	.	4r	.
4F#X'\	.	.	4r	.	4f#X/	.	4f#X/	.	4r	.	.	4r	.	.	4r	.	.	4r	.	.	.	.	.	.	.	.	4r	.	4r	.	4r	.	4r	.
!	!	!	!	!	!	!	!	!	!	!	!	!	!	!	!	!	!	!LO:LB:g=original	!	!	!	!	!	!	!	!	!	!	!	!	!	!	!	!
!	!	!	!	!	!	!	!	!	!LO:LB:g=original	!	!	!	!	!	!	!	!	!	!	!	!	!	!	!	!	!	!	!	!	!	!	!	!	!
=51	=51	=51	=51	=51	=51	=51	=51	=51	=51	=51	=51	=51	=51	=51	=51	=51	=51	=51	=51	=51	=51	=51	=51	=51	=51	=51	=51	=51	=51	=51	=51	=51	=51	=51
4G'\	.	.	4r	.	4g/	.	4g/	.	4r	.	.	4r	.	.	4r	.	.	4r	.	.	2.r	.	2.r	.	2.r	.	4r	.	4r	.	4r	.	4r	.
4r	.	.	4g\	.	4r	.	4r	.	4G\	Do-	.	4B-\	Do-	.	4b-\	Do-	.	4dd\	Do-	.	.	.	.	.	.	.	4G\	.	4b-\	.	4dd\	.	4ddd\	.
4r	.	.	4G/	.	4r	.	4r	.	4G\	-na	.	4B-\	-na	.	4b-\	-na	.	4dd\	-na	.	.	.	.	.	.	.	4G\	.	4b-\	.	4dd\	.	4ddd\	.
!	!	!	!	!	!	!	!LO:LB:g=original	!	!	!	!	!	!	!	!	!	!	!	!	!	!	!	!	!	!	!	!	!	!	!	!	!	!	!
!	!	!	!	!	!	!	!	!	!	!	!	!	!	!	!	!	!	!	!	!	!	!	!	!	!	!	!	!	!LO:LB:g=original	!	!	!	!	!
=52	=52	=52	=52	=52	=52	=52	=52	=52	=52	=52	=52	=52	=52	=52	=52	=52	=52	=52	=52	=52	=52	=52	=52	=52	=52	=52	=52	=52	=52	=52	=52	=52	=52	=52
2.r	.	.	2G/	.	2.r	.	2.r	.	(2G\	no-	.	(2B-\	no-	.	(2b-\	no-	.	(2dd\	no-	.	2.r	.	2.r	.	2.r	.	(2G\	.	2b-\	.	(2dd\	.	(2ddd\	.
.	.	.	4d\	.	.	.	.	.	4F#X\	.	.	4c\)	.	.	4a\)	.	.	4cc\)	.	.	.	.	.	.	.	.	4D\)	.	4a\	.	4cc\)	.	4ccc\)	.
=53	=53	=53	=53	=53	=53	=53	=53	=53	=53	=53	=53	=53	=53	=53	=53	=53	=53	=53	=53	=53	=53	=53	=53	=53	=53	=53	=53	=53	=53	=53	=53	=53	=53	=53
!	!	!	!	!LO:DY:b:t=fo	!	!	!	!	!	!	!	!	!	!	!	!	!	!	!	!	!	!	!	!	!	!	!	!	!	!	!	!	!	!
4r	.	.	4e-\	f	4r	.	4r	.	4G\)	-bis	.	4d-\	-bis	.	4g\	-bis	.	4b-\	-bis	.	2.r	.	2.r	.	2.r	.	4E-\	f	4g\	.	4b-\	.	4bb-\	.
4G'\	.	.	4g\	.	4G/	.	4g/	.	4r	.	.	4r	.	.	4r	.	.	4r	.	.	.	.	.	.	.	.	4G\	.	4r	.	4r	.	4r	.
!	!	!	!LO:SIC:s=4An	!	!	!	!	!	!	!	!	!	!	!	!	!	!	!	!	!	!	!	!	!	!	!	!	!	!	!	!	!	!	!
4A'\	.	.	4G/	.	4A/	.	4a/	.	4r	.	.	4r	.	.	4r	.	.	4r	.	.	.	.	.	.	.	.	4A\	.	4r	.	4r	.	4r	.
!	!	!	!	!	!	!	!	!	!	!	!	!LO:LB:g=original	!	!	!	!	!	!	!	!	!	!	!	!	!	!	!	!	!	!	!	!	!	!
=54	=54	=54	=54	=54	=54	=54	=54	=54	=54	=54	=54	=54	=54	=54	=54	=54	=54	=54	=54	=54	=54	=54	=54	=54	=54	=54	=54	=54	=54	=54	=54	=54	=54	=54
!	!	!	!	!	!	!	!	!	!	!	!	!	!	!	!	!	!	!	!	!LO:DY:b	!	!	!	!	!	!	!	!	!	!	!	!	!	!
!	!	!	!	!	!	!	!	!	!	!	!LO:DY:b	!	!	!LO:DY:b	!	!	!	!	!	!	!	!	!	!	!	!	!	!	!	!	!	!	!	!
4B-'\	.	.	4B-/	.	4B-/	.	4b-/	.	4r	.	f	4r	.	f	4r	.	.	4r	.	f	2.r	.	2.r	.	2.r	.	4B-\	p	4r	f	4r	f	4r	.
!	!	!	!LO:SIC:s=4Gn	!	!	!	!	!	!	!	!	!	!	!	!	!	!	!	!	!	!	!	!	!	!	!	!	!	!	!	!	!	!	!
!	!	!	!	!	!	!	!	!	!	!	!	!	!	!	!	!	!LO:DY:b	!	!	!	!	!	!	!	!	!	!	!	!	!	!	!	!	!
4r	.	.	4F/	.	4r	.	4r	.	4E-\	Do-	.	4e-\	Do-	.	4b-\	Do-	f	4gg\	Do-	.	.	.	.	.	.	.	4G\	.	4ee-\	.	4gg\	.	4eee-\	f
4r	.	.	4g\	.	4r	.	4r	.	4E-\	-na	.	4e-\	-na	.	4b-\	-na	.	4gg\	-na	.	.	.	.	.	.	.	4G\	.	4ee-\	.	4gg\	.	4eee-\	.
!	!	!	!	!	!	!	!	!	!	!	!	!	!	!	!	!	!	!	!	!	!	!	!	!	!	!	!	!	!	!	!	!	!LO:LB:g=original	!
=55	=55	=55	=55	=55	=55	=55	=55	=55	=55	=55	=55	=55	=55	=55	=55	=55	=55	=55	=55	=55	=55	=55	=55	=55	=55	=55	=55	=55	=55	=55	=55	=55	=55	=55
!	!	!	!LO:SIC:s=4e-	!	!	!	!	!	!	!	!	!	!	!	!	!	!	!	!	!	!	!	!	!	!	!	!	!	!	!	!	!	!	!
4E-\	.	.	4en\	.	(4e-/	.	4g/	.	(4E-\	pa-	.	(4e-\	no-	.	2b-\	pa-	.	(4gg\	pa-	.	2.r	.	2.r	.	2.r	.	4G\	.	4ee-\	.	(4gg\	.	4eee-\	.
4F\	.	.	4f\	.	4d/)	.	4f/	.	4D\	.	.	4f\	.	.	.	.	.	4ff\	.	.	.	.	.	.	.	.	4F\	.	4dd\	.	4ff\	.	4ddd\	.
4G\	.	.	4g\	.	4c#X/	.	4en/	.	4C#X\)	-cem	.	4g\)	-bis	.	4b-\	-cem	.	4een\)	-cem	.	.	.	.	.	.	.	4En\	.	4cc#X\	.	4eeX\)	.	4eeen\	.
=56	=56	=56	=56	=56	=56	=56	=56	=56	=56	=56	=56	=56	=56	=56	=56	=56	=56	=56	=56	=56	=56	=56	=56	=56	=56	=56	=56	=56	=56	=56	=56	=56	=56	=56
!	!	!	!	!	!	!	!	!	!	!	!	!LO:SIC:s=2.dn	!	!	!	!	!	!	!	!	!	!	!	!	!	!	!	!	!	!	!	!	!	!
4F\	.	.	2f\	.	2d/	.	2f/	.	2.D\	da	.	2.d-\	do	.	2.b-\	Da	.	2ff\	Da	.	2.r	.	2.r	.	2.r	.	2F\	.	2dd\	.	8ff'\L	.	2fff\	.
.	.	.	.	.	.	.	.	.	.	.	.	.	.	.	.	.	.	.	.	.	.	.	.	.	.	.	.	.	.	.	16gg\L	.	.	.
.	.	.	.	.	.	.	.	.	.	.	.	.	.	.	.	.	.	.	.	.	.	.	.	.	.	.	.	.	.	.	16aa\JJ	.	.	.
4r	.	.	.	.	.	.	.	.	.	.	.	.	.	.	.	.	.	.	.	.	.	.	.	.	.	.	.	.	.	.	16bb-'\LL	.	.	.
.	.	.	.	.	.	.	.	.	.	.	.	.	.	.	.	.	.	.	.	.	.	.	.	.	.	.	.	.	.	.	16aa'\	.	.	.
.	.	.	.	.	.	.	.	.	.	.	.	.	.	.	.	.	.	.	.	.	.	.	.	.	.	.	.	.	.	.	16gg'\	.	.	.
.	.	.	.	.	.	.	.	.	.	.	.	.	.	.	.	.	.	.	.	.	.	.	.	.	.	.	.	.	.	.	16ff'\JJ	.	.	.
4r	.	.	4B-/	.	4f/	.	4b-\	.	.	.	.	.	.	.	.	.	.	4dd\	.	.	.	.	.	.	.	.	4B-\	.	4r	.	16ee-'\LL	.	4r	.
.	.	.	.	.	.	.	.	.	.	.	.	.	.	.	.	.	.	.	.	.	.	.	.	.	.	.	.	.	.	.	16dd'\	.	.	.
.	.	.	.	.	.	.	.	.	.	.	.	.	.	.	.	.	.	.	.	.	.	.	.	.	.	.	.	.	.	.	16cc'\	.	.	.
.	.	.	.	.	.	.	.	.	.	.	.	.	.	.	.	.	.	.	.	.	.	.	.	.	.	.	.	.	.	.	16b-'\JJ	.	.	.
!	!	!	!	!	!LO:LB:g=original	!	!	!	!	!	!	!	!	!	!	!	!	!	!	!	!	!	!	!	!	!	!	!	!	!	!	!	!	!
!	!	!	!	!	!	!	!	!	!	!	!	!	!	!	!	!	!	!	!	!	!	!	!	!	!	!	!	!	!	!	!LO:LB:g=original	!	!	!
=57	=57	=57	=57	=57	=57	=57	=57	=57	=57	=57	=57	=57	=57	=57	=57	=57	=57	=57	=57	=57	=57	=57	=57	=57	=57	=57	=57	=57	=57	=57	=57	=57	=57	=57
4E-\	6 3	.	4c\	.	2e-/	.	2cc\	.	(2E-\	pa-	.	(8c\	pa-	.	(2.g\	pa-	.	(8cc\	pa-	.	2.r	.	2.r	.	2.r	.	4c\	.	4g/	.	4cc\	.	4eee-\	.
.	.	.	.	.	.	.	.	.	.	.	.	4e-\	.	.	.	.	.	4gg\	.	.	.	.	.	.	.	.	.	.	.	.	.	.	.	.
4r	.	.	4e-\	.	.	.	.	.	.	.	.	.	.	.	.	.	.	.	.	.	.	.	.	.	.	.	4e-\	.	4r	.	4r	.	4r	.
.	.	.	.	.	.	.	.	.	.	.	.	4g\	.	.	.	.	.	8bn\	.	.	.	.	.	.	.	.	.	.	.	.	.	.	.	.
4En\	5 3	.	4en\	.	4en/	.	4b-\	.	4G\)	.	.	.	.	.	.	.	.	8cc\L	.	.	.	.	.	.	.	.	4en\	.	4g/	.	4b-\	.	4eeen\	.
.	.	.	.	.	.	.	.	.	.	.	.	8en\)	.	.	.	.	.	8b-X\J)	.	.	.	.	.	.	.	.	.	.	.	.	.	.	.	.
=58	=58	=58	=58	=58	=58	=58	=58	=58	=58	=58	=58	=58	=58	=58	=58	=58	=58	=58	=58	=58	=58	=58	=58	=58	=58	=58	=58	=58	=58	=58	=58	=58	=58	=58
!	!	!	!LO:TX:t=P:problem=dodatkowa pauza 4	!	!	!	!	!	!	!	!	!	!	!	!	!	!	!	!	!	!	!	!	!	!	!LO:DY:a	!	!	!	!	!	!	!	!
!	!	!	!	!	!	!	!	!	!	!	!	!	!	!	!	!	!	!	!	!	!	!	!	!LO:HP:t=cres	!	!LO:HP:a:t=cres	!	!	!	!	!	!	!	!
4F\	.	.	4f\	.	4f/	.	8.a\L	.	2F\	-cem	.	4f\	.	.	4f\)	.	.	8.a\L	.	.	4FF/	<	4f/	<	4cc\	<	4f\	.	4f/	.	4a\	.	4fff\	.
.	.	.	.	.	.	.	16cc\Jk	.	.	.	.	.	.	.	.	.	.	16cc\Jk	.	.	.	.	.	.	.	.	.	.	.	.	.	.	.	.
4FF/	.	.	4a\	.	4A/	.	4f/	.	.	.	.	4c\	-cem	.	4a\	-cem	.	4f/	-cem	.	8r	.	8r	.	8r	.	8r	.	4r	.	4r	.	8r	.
!	!	!	!	!	!	!	!	!	!	!	!	!	!	!	!	!	!	!	!	!	!	!	!	!	! 	!LO:DY:a	!	!	!	!	!	!	!	!
.	.	.	.	.	.	.	.	.	.	.	.	.	.	.	.	.	.	.	.	.	8FF/L	.	8f/L	<	8cc\L	<	8F\L	.	.	.	.	.	8ff\L	.
!	!	!	!	!	!	!	!	!	!	!	!	!	!	!	!	!	!	!LO:TX:b:t=Verte Cito	!	!	!	!	!	!	!	!	!	!	!	!	!	!	!	!
4r	.	.	4cc\	.	4r	.	4r	.	4r	.	.	4r	.	.	4r	.	.	4r	.	.	8FF/	.	8f/	.	8cc\	.	8A\	.	4r	.	4r	.	8aa\	.
.	.	.	.	.	.	.	.	.	.	.	.	.	.	.	.	.	.	.	.	.	8FF/J	[[	8f/J	[[	8cc\J	[[	8c\J	.	.	.	.	.	8ccc\J	.
!	!	!	!	!	!	!	!	!	!	!	!	!	!	!	!LO:LB:g=original	!	!	!LO:LB:g=original	!	!	!	!	!	!	!	!	!	!	!	!	!	!	!	!
!	!	!	!	!	!	!	!	!	!	!	!	!	!	!	!	!	!	!	!	!	!	!	!LO:LB:g=original	!	!LO:LB:g=original	!	!	!	!	!	!	!	!	!
=59	=59	=59	=59	=59	=59	=59	=59	=59	=59	=59	=59	=59	=59	=59	=59	=59	=59	=59	=59	=59	=59	=59	=59	=59	=59	=59	=59	=59	=59	=59	=59	=59	=59	=59
!	!	!	!	!	!	!	!	!	!	!	!	!	!	!	!	!	!	!	!	!	!	!	!	!LO:DY:t=fo	!	!LO:DY:t=for	!	!	!	!	!	!	!	!
4F\	7_ 5_	.	4c\	.	8r	.	16r	.	2A\	Do-	.	2f\	do-	.	2cc\	Do-	.	2ee-\	Do-	.	4FF/	.	4f/	f	4cc\	f	4c\	f	2a\	.	2cc\	.	2eee-\	.
.	.	.	.	.	.	.	16ee-\LL	.	.	.	.	.	.	.	.	.	.	.	.	.	.	.	.	.	.	.	.	.	.	.	.	.	.	.
.	.	.	.	.	8c/ 8e-	.	16ff\	.	.	.	.	.	.	.	.	.	.	.	.	.	.	.	.	.	.	.	.	.	.	.	.	.	.	.
.	.	.	.	.	.	.	16aa\JJ	.	.	.	.	.	.	.	.	.	.	.	.	.	.	.	.	.	.	.	.	.	.	.	.	.	.	.
8r	.	.	4f\	.	8c/ 8e-L	.	16ccc\LL	.	.	.	.	.	.	.	.	.	.	.	.	.	8r	.	8r	.	8r	.	4F\	.	.	.	.	.	.	.
.	.	.	.	.	.	.	16ff\	.	.	.	.	.	.	.	.	.	.	.	.	.	.	.	.	.	.	.	.	.	.	.	.	.	.	.
8F\L	.	.	.	.	8c/ 8e-	.	16aa\	.	.	.	.	.	.	.	.	.	.	.	.	.	16FF/LL	.	16f/LL	.	16cc\LL	.	.	.	.	.	.	.	.	.
.	.	.	.	.	.	.	16ccc\JJ	.	.	.	.	.	.	.	.	.	.	.	.	.	16FF/JJ	.	16f/JJ	.	16cc\JJ	.	.	.	.	.	.	.	.	.
8A\	.	.	4G/	.	8c/ 8e-	.	16eee-\LL	.	4A\	-na	.	4f\	-na	.	4cc\	-na	.	4ee-\	-na	.	8FF/L	.	8f/L	.	8cc\L	.	4A\	.	4a\	.	4cc\	.	4eee-\	.
.	.	.	.	.	.	.	16ccc\	.	.	.	.	.	.	.	.	.	.	.	.	.	.	.	.	.	.	.	.	.	.	.	.	.	.	.
8F\J	.	.	.	.	8c/ 8e-J	.	16aa\	.	.	.	.	.	.	.	.	.	.	.	.	.	8FF/J	.	8f/J	.	8cc\J	.	.	.	.	.	.	.	.	.
.	.	.	.	.	.	.	16eee-\JJ	.	.	.	.	.	.	.	.	.	.	.	.	.	.	.	.	.	.	.	.	.	.	.	.	.	.	.
=60	=60	=60	=60	=60	=60	=60	=60	=60	=60	=60	=60	=60	=60	=60	=60	=60	=60	=60	=60	=60	=60	=60	=60	=60	=60	=60	=60	=60	=60	=60	=60	=60	=60	=60
4B-\	3	.	4B-/	.	8r	.	8dd\L	.	2B-\	no-	.	2f\	no-	.	2b-\	no-	.	2dd\	no-	.	4BB-/	.	4b-\	.	4dd\	.	4B-\	.	2b-\	.	2dd\	.	2ddd\	.
.	.	.	.	.	8B-/ 8d	.	16ddd\L	.	.	.	.	.	.	.	.	.	.	.	.	.	.	.	.	.	.	.	.	.	.	.	.	.	.	.
.	.	.	.	.	.	.	16ccc\JJ	.	.	.	.	.	.	.	.	.	.	.	.	.	.	.	.	.	.	.	.	.	.	.	.	.	.	.
8r	.	.	4b-\	.	8B-/ 8dL	.	16bb-\LL	.	.	.	.	.	.	.	.	.	.	.	.	.	8r	.	8r	.	8r	.	4BB-/	.	.	.	.	.	.	.
.	.	.	.	.	.	.	16aa\	.	.	.	.	.	.	.	.	.	.	.	.	.	.	.	.	.	.	.	.	.	.	.	.	.	.	.
8BB-/L	.	.	.	.	8B-/ 8d	.	16gg\	.	.	.	.	.	.	.	.	.	.	.	.	.	8BB-/L	.	8B-/L	.	8b-\L	.	.	.	.	.	.	.	.	.
.	.	.	.	.	.	.	16ff\JJ	.	.	.	.	.	.	.	.	.	.	.	.	.	.	.	.	.	.	.	.	.	.	.	.	.	.	.
8D/	.	.	4d\	.	8B-/ 8d	.	16ee-\LL	.	4D\	-bis	.	4f\	-bis	.	4b-\	-bis	.	4dd\	-bis	.	8FF/	.	8d/	.	8b-\	.	4D/	.	4b-\	.	4dd\	.	4fff\	.
.	.	.	.	.	.	.	16dd\	.	.	.	.	.	.	.	.	.	.	.	.	.	.	.	.	.	.	.	.	.	.	.	.	.	.	.
8BB-/J	.	.	.	.	8B-/ 8dJ	.	16cc\	.	.	.	.	.	.	.	.	.	.	.	.	.	8BB-/J	.	8B-/J	.	8b-\J	.	.	.	.	.	.	.	.	.
.	.	.	.	.	.	.	16b-\JJ	.	.	.	.	.	.	.	.	.	.	.	.	.	.	.	.	.	.	.	.	.	.	.	.	.	.	.
!LO:LB:g=original	!	!	!	!	!	!	!LO:LB:g=original	!	!LO:LB:g=original	!	!	!	!	!	!	!	!	!	!	!	!	!	!	!	!	!	!	!	!	!	!	!	!	!
=61	=61	=61	=61	=61	=61	=61	=61	=61	=61	=61	=61	=61	=61	=61	=61	=61	=61	=61	=61	=61	=61	=61	=61	=61	=61	=61	=61	=61	=61	=61	=61	=61	=61	=61
!	!	!	!	!	!	!LO:DY:b	!	!	!	!	!	!	!	!	!	!	!	!	!	!	!	!	!	!	!	!	!	!	!	!	!	!	!	!
4E-\	6 3	.	8e-\L	.	(16f/LL	p	(16dd\LL	.	4E-\	pa-	.	(4e-\	pa-	.	(4g\	pa-	.	4cc\	pa-	.	2.r	.	2.r	.	2.r	.	8E-\L	.	4cc\	.	4ee-\	.	4eee-\	.
.	.	.	.	.	16e-/JJ)	.	16cc\JJ)	.	.	.	.	.	.	.	.	.	.	.	.	.	.	.	.	.	.	.	.	.	.	.	.	.	.	.
.	.	.	8en\J	.	8r	.	8r	.	.	.	.	.	.	.	.	.	.	.	.	.	.	.	.	.	.	.	8En\J	.	.	.	.	.	.	.
!	!	!	!LO:SIC:s=4f	!	!	!	!	!	!	!	!	!LO:SIC:s=4dn	!	!	!	!	!	!	!	!	!	!	!	!	!	!	!	!	!	!	!	!	!	!
4F\	6 4	.	4e\	.	(16e-/LL	.	(16cc\LL	.	2F\	.	.	4d-\	.	.	4f\	.	.	(4b-\	.	.	.	.	.	.	.	.	4F\	.	4b-\	.	4dd\	.	4ddd\	.
.	.	.	.	.	16d/JJ)	.	16b-\JJ)	.	.	.	.	.	.	.	.	.	.	.	.	.	.	.	.	.	.	.	.	.	.	.	.	.	.	.
.	.	.	.	.	8r	.	8r	.	.	.	.	.	.	.	.	.	.	.	.	.	.	.	.	.	.	.	.	.	.	.	.	.	.	.
!LO:SIC:s=4F#	!	!	!LO:SIC:s=4f#	!	!	!	!	!	!	!	!	!	!	!	!	!	!	!	!	!	!	!	!	!	!	!	!	!	!	!	!	!	!	!
4F\	5 3	.	4e#X\	.	16d/LL	.	(16b-\LL	.	.	.	.	4c\)	.	.	4e-\)	.	.	4an\)	.	.	.	.	.	.	.	.	4F#X\	.	4a\	.	4cc\	.	4ccc\	.
.	.	.	.	.	16c/JJ	.	16a\JJ)	.	.	.	.	.	.	.	.	.	.	.	.	.	.	.	.	.	.	.	.	.	.	.	.	.	.	.
.	.	.	.	.	8r	.	8r	.	.	.	.	.	.	.	.	.	.	.	.	.	.	.	.	.	.	.	.	.	.	.	.	.	.	.
=62	=62	=62	=62	=62	=62	=62	=62	=62	=62	=62	=62	=62	=62	=62	=62	=62	=62	=62	=62	=62	=62	=62	=62	=62	=62	=62	=62	=62	=62	=62	=62	=62	=62	=62
!	!	!	!LO:N:vis=1	!	!	!	!	!	!	!	!	!	!	!	!	!	!	!LO:N:vis=2	!	!	!	!	!	!	! 	!	!LO:N:vis=2	!	!	!	!	!	!	!
2.G;\	8 3	.	2.g;\	.	2.c#X;/ 2.en	.	2.b-;\	.	2.En;\	-cem	.	2.d-X;\	-cem	.	2.g;\	-cem	.	2.b-;\	-cem	.	2.BB-T;/	.	2.B-;/	.	2.b-;\	.	2.G;\	.	2.b-;\	.	2.dd-X;\	.	2.eeen^<;\	.
!	!	!	!	!	!	!	!	!	!	!	!	!	!LO:LB:g=original	!	!	!	!	!	!	!	!	!	!	!	!	!	!LO:LB:g=original	!	!	!	!	!	!	!
=63	=63	=63	=63	=63	=63	=63	=63	=63	=63	=63	=63	=63	=63	=63	=63	=63	=63	=63	=63	=63	=63	=63	=63	=63	=63	=63	=63	=63	=63	=63	=63	=63	=63	=63
!	!	!	!	!	!	!	!	!	!	!	!	!	!	!	!	!	!LO:DY:b	!	!	!	!	!	!	!	!	!	!	!	!	!	!	!	!	!
!	!	!LO:DY:b	!	!	!	!LO:DY:b	!	!	!	!	!LO:DY:b	!	!	!LO:DY:b	!	!	!	!	!	!	!	!	!	!	!	!	!	!	!	!	!	!	!	!
4F\	7_ 5_	f	4cc\	.	8r	f	16r	.	(4F\	Do-	ff	2f\	Do-	f	2cc\	Do-	ff	2ee-\	do-	.	4FF/	.	4f/	.	4cc\	.	4F\	ff	2cc\	ff	2ee-\	ff	2ccc\	ff
.	.	.	.	.	.	.	16f/LL	.	.	.	.	.	.	.	.	.	.	.	.	.	.	.	.	.	.	.	.	.	.	.	.	.	.	.
.	.	.	.	.	8cn/ 8e-X	.	16a/	.	.	.	.	.	.	.	.	.	.	.	.	.	.	.	.	.	.	.	.	.	.	.	.	.	.	.
.	.	.	.	.	.	.	16cc/JJ	.	.	.	.	.	.	.	.	.	.	.	.	.	.	.	.	.	.	.	.	.	.	.	.	.	.	.
4A\	.	.	4a\	.	8c/ 8e-L	.	16ee-\LL	.	4A\)	.	.	.	.	.	.	.	.	.	.	.	8r	.	8r	.	8r	.	4A\	.	.	.	.	.	.	.
.	.	.	.	.	.	.	16ff\	.	.	.	.	.	.	.	.	.	.	.	.	.	.	.	.	.	.	.	.	.	.	.	.	.	.	.
.	.	.	.	.	8c/ 8e-	.	16aa\	.	.	.	.	.	.	.	.	.	.	.	.	.	16FF/LL	.	16f/LL	.	16cc\LL	.	.	.	.	.	.	.	.	.
.	.	.	.	.	.	.	16ccc\JJ	.	.	.	.	.	.	.	.	.	.	.	.	.	16FF/JJ	.	16f/JJ	.	16cc\JJ	.	.	.	.	.	.	.	.	.
4c\	.	.	4f\	.	8c/ 8e-	.	16eee-\LL	.	4F\	-na	.	4f\	-na	.	4cc\	-na	.	4ee-\	-na	.	8FF/L	.	8f/L	.	8cc\L	.	4c\	.	4cc\	.	4ee-\	.	4ccc\	.
.	.	.	.	.	.	.	16ccc\	.	.	.	.	.	.	.	.	.	.	.	.	.	.	.	.	.	.	.	.	.	.	.	.	.	.	.
.	.	.	.	.	8c/ 8e-J	.	16aa\	.	.	.	.	.	.	.	.	.	.	.	.	.	8FF/J	.	8f/J	.	8cc\J	.	.	.	.	.	.	.	.	.
.	.	.	.	.	.	.	16eee-\JJ	.	.	.	.	.	.	.	.	.	.	.	.	.	.	.	.	.	.	.	.	.	.	.	.	.	.	.
*	*	*	*	*	*Xtremolo	*	*	*	*	*	*	*	*	*	*	*	*	*	*	*	*	*	*	*	*	*	*	*	*	*	*	*	*	*
=64	=64	=64	=64	=64	=64	=64	=64	=64	=64	=64	=64	=64	=64	=64	=64	=64	=64	=64	=64	=64	=64	=64	=64	=64	=64	=64	=64	=64	=64	=64	=64	=64	=64	=64
4B-\	.	.	4B-/	.	8B-/L	.	16dd\LL	.	(4B-\	no-	.	2f\	no-	.	2b-\	no-	.	(2dd\	no-	.	4BB-/	.	4b-\	.	4dd\	.	4B-\	.	2b-\	.	2dd\	.	2bb-\	.
.	.	.	.	.	.	.	16ddd\	.	.	.	.	.	.	.	.	.	.	.	.	.	.	.	.	.	.	.	.	.	.	.	.	.	.	.
.	.	.	.	.	(8f#X/	.	16aa\	.	.	.	.	.	.	.	.	.	.	.	.	.	.	.	.	.	.	.	.	.	.	.	.	.	.	.
.	.	.	.	.	.	.	16ccc\JJ	.	.	.	.	.	.	.	.	.	.	.	.	.	.	.	.	.	.	.	.	.	.	.	.	.	.	.
4r	.	.	4d/	.	8g/)	.	16bb-\LL	.	4G\)	.	.	.	.	.	.	.	.	.	.	.	4r	.	4r	.	4r	.	4D\	.	.	.	.	.	.	.
.	.	.	.	.	.	.	16gg\	.	.	.	.	.	.	.	.	.	.	.	.	.	.	.	.	.	.	.	.	.	.	.	.	.	.	.
.	.	.	.	.	8d/J	.	16ff#X\	.	.	.	.	.	.	.	.	.	.	.	.	.	.	.	.	.	.	.	.	.	.	.	.	.	.	.
.	.	.	.	.	.	.	16aa\JJ	.	.	.	.	.	.	.	.	.	.	.	.	.	.	.	.	.	.	.	.	.	.	.	.	.	.	.
4r	.	.	4e-/	.	8e-/L	.	16gg\LL	.	4E-\	-bis	.	4e-\	.	.	4cc\	-bis	.	4gg\)	-bis	.	4r	.	4r	.	4r	.	4E-\	.	4ee-\	.	4gg\	.	8.eee-X\L	.
.	.	.	.	.	.	.	16bn\	.	.	.	.	.	.	.	.	.	.	.	.	.	.	.	.	.	.	.	.	.	.	.	.	.	.	.
.	.	.	.	.	8g/J	.	16cc\	.	.	.	.	.	.	.	.	.	.	.	.	.	.	.	.	.	.	.	.	.	.	.	.	.	.	.
.	.	.	.	.	.	.	16ee-\JJ	.	.	.	.	.	.	.	.	.	.	.	.	.	.	.	.	.	.	.	.	.	.	.	.	.	16ccc\Jk	.
!	!	!	!	!	!LO:LB:g=original	!	!	!	!	!	!	!	!	!	!	!	!	!	!	!	!	!	!	!	!	!	!	!	!	!	!	!	!	!
=65	=65	=65	=65	=65	=65	=65	=65	=65	=65	=65	=65	=65	=65	=65	=65	=65	=65	=65	=65	=65	=65	=65	=65	=65	=65	=65	=65	=65	=65	=65	=65	=65	=65	=65
!	!	!	!	!	!	!	!	!	!	!	!	!LO:SIC:s=4dn	!	!	!	!	!	!	!	!	!	!	!	!	!	!	!	!	!	!	!	!	!	!
4F\	.	.	4f\	.	8.d/L	.	8.ffn\L	.	(2F\	pa-	.	4d-\	-bis	.	(8.dd\L	pa-	.	8.ff\L	pa-	.	4r	p	4r	p	4r	p	8r	.	8.dd\L	.	8.ff\L	.	8.fff\L	.
.	.	.	.	.	.	.	.	.	.	.	.	.	.	.	.	.	.	.	.	.	.	.	.	.	.	.	8F\L	.	.	.	.	.	.	.
.	.	.	.	.	16fn/Jk	.	16dd\Jk	.	.	.	.	.	.	.	16b-\Jk	.	.	16dd\Jk	.	.	.	.	.	.	.	.	.	.	16b-\Jk	.	16dd\Jk	.	16ddd\Jk	.
!	!	!	!LO:SIC:s=4d	!	!	!	!	!	!	!	!	!	!	!	!	!	!	!	!	!	!	!	!	!	!	!	!	!	!	!	!	!	!	!
4r	.	.	4c\	.	4d/	.	4b-T\	.	.	.	.	2f\	pa-	.	4d\	.	.	4b-T\	.	.	4FF/	.	4f/	.	4cc\	.	8d\	.	4f/	.	4b-\	.	4bb-T\	.
.	.	.	.	.	.	.	.	.	.	.	.	.	.	.	.	.	.	.	.	.	.	.	.	.	.	.	8B-\	.	.	.	.	.	.	.
4FF/	.	.	4e-\	.	8.f/L	.	8dd\L	.	4E-\)	.	.	.	.	.	8.f\L	.	.	8dd\L	.	.	4FF/	.	4f/	.	4cc\	.	8e-\	.	8.ff\L	.	8.dd\L	.	(>8ddd\L	.
.	.	.	.	.	.	.	8cc\J	.	.	.	.	.	.	.	.	.	.	8cc\J	.	.	.	.	.	.	.	.	8A\J	.	.	.	.	.	8ccc\J)	.
.	.	.	.	.	16e-/Jk	.	.	.	.	.	.	.	.	.	16e-\Jk)	.	.	.	.	.	.	.	.	.	.	.	.	.	16ee-\Jk	.	16cc\Jk	.	.	.
=66	=66	=66	=66	=66	=66	=66	=66	=66	=66	=66	=66	=66	=66	=66	=66	=66	=66	=66	=66	=66	=66	=66	=66	=66	=66	=66	=66	=66	=66	=66	=66	=66	=66	=66
!	!	!	!	!	!	!	!	!	!	!	!	!LO:SIC:s=4dn	!	!	!	!	!	!	!	!	!	!	!	!	!	!	!	!	!	!	!	!	!	!
4BB-/	.	.	4B-/	.	4d/	.	4b-\	.	4D\	-cem	.	4d-\	-cem	.	4f\	-cem	.	4b-\	-cem	.	4BB-/	.	4d/	.	4b-\	.	8B-\L	p	4dd\	.	4b-\	.	4bb-\	.
.	.	.	.	.	.	.	.	.	.	.	.	.	.	.	.	.	.	.	.	.	.	.	.	.	.	.	(8F\	.	.	.	.	.	.	.
!	!	!	!LO:SIC:s=4d	!	!	!	!	!	!	!	!	!	!	!	!	!	!	!	!	!	!	!	!	!	!	!	!	!	!	!	!	!	!	!
!	!	!	!	!	!	!	!	!	!	!	!	!	!	!	!	!	!	!	!	!LO:DY:b	!	!	!	!	!	!	!	!	!	!	!	!	!	!
!	!	!	!	!	!	!	!	!	!	!	!	!	!	!	!	!	!LO:DY:b	!	!	!	!	!	!	!	!	!	!	!	!	!	!	!	!	!
!	!	!	!	!	!	!LO:DY:b	!	!	!	!	!LO:DY:b	!	!	!LO:DY:b	!	!	!	!	!	!	!	!	!	!	!	!	!	!	!	!	!	!	!	!
4r	.	.	4en\	.	4d/	p	4f/	p	4D\	Do-	p	4B-\	Do-	p	4d\	Do-	p	4f/	do-	p	4r	.	4r	.	4r	.	8En\	.	4r	.	4r	.	4r	.
.	.	.	.	.	.	.	.	.	.	.	.	.	.	.	.	.	.	.	.	.	.	.	.	.	.	.	8F\	.	.	.	.	.	.	.
!	!	!	!LO:SIC:s=4B-	!	!	!	!	!	!	!	!	!	!	!	!	!	!	!	!	!	!	!	!	!	!	!	!	!	!	!	!	!	!	!
4r	.	.	4c\	.	4d/	.	4f/	.	4D\	-na	.	4B-\	-na	.	4d\	-na	.	4f/	-na	.	4r	.	4r	.	4r	.	8d\)	.	4r	.	4r	.	4r	.
.	.	.	.	.	.	.	.	.	.	.	.	.	.	.	.	.	.	.	.	.	.	.	.	.	.	.	8B-\J	.	.	.	.	.	.	.
!	!	!	!	!	!	!	!	!	!	!	!	!	!	!	!LO:LB:g=original	!	!	!	!	!	!	!LO:LB:g=original	!	!LO:LB:g=original	!	!	!	!	!	!	!	!	!	!
=67	=67	=67	=67	=67	=67	=67	=67	=67	=67	=67	=67	=67	=67	=67	=67	=67	=67	=67	=67	=67	=67	=67	=67	=67	=67	=67	=67	=67	=67	=67	=67	=67	=67	=67
!	!	!LO:DY:b	!	!	!	!	!	!	!	!	!	!	!	!	!	!	!	!	!	!	!	!	!LO:TX:a:t=1	!	!LO:TX:a:t=1	!	!	!	!	!	!LO:TX:a:t=1	!	!	!
4BB-/	6 4	p	4e-\	.	4r	.	4r	.	4r	.	.	4r	.	.	4r	.	.	4r	.	.	2.r	.	2.r	.	2.r	.	8r	.	2.r	.	2.r	.	2.r	.
.	.	.	.	.	.	.	.	.	.	.	.	.	.	.	.	.	.	.	.	.	.	.	.	.	.	.	(8G\L	.	.	.	.	.	.	.
!	!	!	!LO:SIC:s=4g	!	!	!	!	!	!	!	!	!	!	!	!	!	!	!	!	!	!	!	!	!	!	!	!	!	!	!	!	!	!	!
4r	.	.	4f#X\	.	4e-/	.	4g/	.	4E-\	no-	.	4B-\	no-	.	4e-\	no-	.	4g/	no-	.	.	.	.	.	.	.	8F#X\	.	.	.	.	.	.	.
.	.	.	.	.	.	.	.	.	.	.	.	.	.	.	.	.	.	.	.	.	.	.	.	.	.	.	8G\	.	.	.	.	.	.	.
4r	.	.	4e-\	.	4e-/	.	4g/	.	4E-\	-bis	.	4B-\	-bis	.	4e-\	-bis	.	4g/	-bis	.	.	.	.	.	.	.	8e-\)	.	.	.	.	.	.	.
.	.	.	.	.	.	.	.	.	.	.	.	.	.	.	.	.	.	.	.	.	.	.	.	.	.	.	8c\J	.	.	.	.	.	.	.
!	!	!	!	!	!	!	!	!	!	!	!	!	!	!	!	!	!	!	!	!	!	!	!	!	!	!	!	!	!LO:LB:g=original	!	!	!	!	!
=68	=68	=68	=68	=68	=68	=68	=68	=68	=68	=68	=68	=68	=68	=68	=68	=68	=68	=68	=68	=68	=68	=68	=68	=68	=68	=68	=68	=68	=68	=68	=68	=68	=68	=68
4E-\	4 2	.	4a\	.	4c/ 4e-	.	4f/ 4a	.	(2C\	pa-	.	2.f\	pa-	.	2.e-\	pa-	.	2.a\	pa-	.	4r	.	4r	.	4r	.	(8A\L	.	2ee-\	.	8r	p	2ccc\	.
.	.	.	.	.	.	.	.	.	.	.	.	.	.	.	.	.	.	.	.	.	.	.	.	.	.	.	8e-\	.	.	.	(8a\L	.	.	.
4r	.	.	4cc\	.	4r	.	4r	.	.	.	.	.	.	.	.	.	.	.	.	.	4FF/	.	4f/	.	4cc\	.	8c\	.	.	.	8cc\	.	.	.
.	.	.	.	.	.	.	.	.	.	.	.	.	.	.	.	.	.	.	.	.	.	.	.	.	.	.	8A\	.	.	.	8ee-\	.	.	.
4r	.	.	4f\	.	4r	.	4r	.	4F\	.	.	.	.	.	.	.	.	.	.	.	4FF/	.	4f/	.	4cc\	.	8F\)	.	4ee-\	.	8ff\	.	4ccc\	.
.	.	.	.	.	.	.	.	.	.	.	.	.	.	.	.	.	.	.	.	.	.	.	.	.	.	.	8E-\J	.	.	.	8aa\J)	.	.	.
=69	=69	=69	=69	=69	=69	=69	=69	=69	=69	=69	=69	=69	=69	=69	=69	=69	=69	=69	=69	=69	=69	=69	=69	=69	=69	=69	=69	=69	=69	=69	=69	=69	=69	=69
4r	.	.	4d\	.	(4B-/ 4d	.	4d/ 4b-	.	4BB-/)	-cem	.	4f\	-cem	.	4d\	-cem	.	4b-\	-cem	.	4BB-/	.	4b-\	.	4dd\	.	4D\	.	4dd\	.	4bb-\	.	4ddd\	.
4F\	.	.	4f\	.	4f/)	.	4d/ 4b-	.	4r	.	.	4r	.	.	4r	.	.	4r	.	.	4BB-/	.	4d/	.	4b-\	.	4f\	.	4b-\	.	4dd\	.	4bb-\	.
4D\	.	.	4d\	.	4f/	.	4d/ 4b-	.	4r	.	.	4r	.	.	4r	.	.	4r	.	.	4BB-/	.	4d/	.	4b-\	.	4d\	.	4b-\	.	4dd\	.	4bb-\	.
=70	=70	=70	=70	=70	=70	=70	=70	=70	=70	=70	=70	=70	=70	=70	=70	=70	=70	=70	=70	=70	=70	=70	=70	=70	=70	=70	=70	=70	=70	=70	=70	=70	=70	=70
!	!	!	!	!	!	!	!	!	!	!	!	!LO:TX:a:t=1	!	!	!	!	!	!	!	!	!	!	!	!	!	!	!	!	!	!	!	!	!	!
4BB-/	.	.	4B-/	.	4f/	.	4d/ 4b-	.	2.r	.	.	2.r	.	.	2.r	.	.	2.r	.	.	4BB-/	.	4d/	.	4b-\	.	4B-\	.	4b-\	.	4dd\	.	4bb-\	.
4r	.	.	4r	.	4r	.	4r	.	.	.	.	.	.	.	.	.	.	.	.	.	4r	.	4r	.	4r	.	4r	.	4r	.	4r	.	4r	.
!LO:TX:b:t=Finis	!	!	!	!	!	!	!	!	!	!	!	!	!	!	!	!	!	!	!	!	!	!	!	!	!	!	!	!	!	!	!	!	!	!
!LO:TX:b:t=6./6. 34	!	!	!	!	!	!	!	!	!	!	!	!	!	!	!	!	!	!	!	!	!	!	!	!	!	!	!	!	!	!	!	!	!	!
!LO:TX:b:t=w Gostyniu	!	!	!	!	!	!	!	!	!	!	!	!	!	!	!	!	!	!	!	!	!	!	!LO:TX:b:t=Finis	!	!	!	!	!	!	!	!	!	!	!
!LO:TX:b:t=Finis	!	!	!	!	!	!	!	!	!	!	!	!	!	!	!	!	!	!	!	!	!LO:TX:a:t=w Gostyniu 6/6 34	!	!LO:TX:b:t=w Gostyniu 6/6 34	!	!LO:TX:b:t=w Gostyniu 6/6 34	!	!	!	!	!	!	!	!	!
4r	.	.	4r	.	4r	.	4r	.	.	.	.	.	.	.	.	.	.	.	.	.	4r	.	4r	.	4r	.	4r	.	4r	.	4r	.	4r	.
==	==	==	==	==	==	==	==	==	==	==	==	==	==	==	==	==	==	==	==	==	==	==	==	==	==	==	==	==	==	==	==	==	==	==
*-	*-	*-	*-	*-	*-	*-	*-	*-	*-	*-	*-	*-	*-	*-	*-	*-	*-	*-	*-	*-	*-	*-	*-	*-	*-	*-	*-	*-	*-	*-	*-	*-	*-	*-
!!!system-decoration: [(s1,s2,s3,s4)][(s5,s6)][(s7)][(s8,s9,s10,s11)][(s12,s13,s14)]s15
!!!RDF**kern: > = above
!!!RDF**kern: < = below
!!!ENC: Andrzej Borzym
!!!END: 2020-08-04
!!!ENC: Natalia Wrzos
!!!END: 2022-02-22
!!!YEC: Copyright 2022 Narodowy Instytut Fryderyka Chopina (https://polishscores.org)
!!!YEM: License CC-BY-4.0 (https://creativecommons.org/licenses/by/4.0)
